Pruetnut/Final_Project_FRA333/ur5_final_time_series.csv
Time,q1,q2,q3,q4,q5,q6,Action
0.0,1.064,-0.1159999999999998,0.1,0,-1.57,0,Set_Draw
0.008,1.064,-0.1159999999999998,0.0999936,0,-1.57,0,Set_Draw
0.016,1.064,-0.1159999999999998,0.0999744,0,-1.57,0,Set_Draw
0.024,1.064,-0.1159999999999998,0.0999424,0,-1.57,0,Set_Draw
0.032,1.064,-0.1159999999999998,0.0998976,0,-1.57,0,Set_Draw
0.04,1.064,-0.1159999999999998,0.09984000000000001,0,-1.57,0,Set_Draw
0.048,1.064,-0.1159999999999998,0.0997696,0,-1.57,0,Set_Draw
0.056,1.064,-0.1159999999999998,0.09968640000000001,0,-1.57,0,Set_Draw
0.064,1.064,-0.1159999999999998,0.09959040000000001,0,-1.57,0,Set_Draw
0.07200000000000001,1.064,-0.1159999999999998,0.0994816,0,-1.57,0,Set_Draw
0.08000000000000002,1.064,-0.1159999999999998,0.09936,0,-1.57,0,Set_Draw
0.08800000000000002,1.064,-0.1159999999999998,0.09922560000000001,0,-1.57,0,Set_Draw
0.09600000000000003,1.064,-0.1159999999999998,0.09907840000000001,0,-1.57,0,Set_Draw
0.10400000000000004,1.064,-0.1159999999999998,0.09892000000000001,0,-1.57,0,Set_Draw
0.11200000000000004,1.064,-0.1159999999999998,0.09876,0,-1.57,0,Set_Draw
0.12000000000000005,1.064,-0.1159999999999998,0.09860000000000001,0,-1.57,0,Set_Draw
0.12800000000000006,1.064,-0.1159999999999998,0.09844,0,-1.57,0,Set_Draw
0.13600000000000007,1.064,-0.1159999999999998,0.09828,0,-1.57,0,Set_Draw
0.14400000000000007,1.064,-0.1159999999999998,0.09812,0,-1.57,0,Set_Draw
0.15200000000000008,1.064,-0.1159999999999998,0.09796,0,-1.57,0,Set_Draw
0.1600000000000001,1.064,-0.1159999999999998,0.09780000000000001,0,-1.57,0,Set_Draw
0.1680000000000001,1.064,-0.1159999999999998,0.09764,0,-1.57,0,Set_Draw
0.1760000000000001,1.064,-0.1159999999999998,0.09748000000000001,0,-1.57,0,Set_Draw
0.1840000000000001,1.064,-0.1159999999999998,0.09732,0,-1.57,0,Set_Draw
0.19200000000000012,1.064,-0.1159999999999998,0.09716000000000001,0,-1.57,0,Set_Draw
0.20000000000000012,1.064,-0.1159999999999998,0.097,0,-1.57,0,Set_Draw
0.20800000000000013,1.064,-0.1159999999999998,0.09684000000000001,0,-1.57,0,Set_Draw
0.21600000000000014,1.064,-0.1159999999999998,0.09668,0,-1.57,0,Set_Draw
0.22400000000000014,1.064,-0.1159999999999998,0.09652000000000001,0,-1.57,0,Set_Draw
0.23200000000000015,1.064,-0.1159999999999998,0.09636,0,-1.57,0,Set_Draw
0.24000000000000016,1.064,-0.1159999999999998,0.09620000000000001,0,-1.57,0,Set_Draw
0.24800000000000016,1.064,-0.1159999999999998,0.09604,0,-1.57,0,Set_Draw
0.25600000000000017,1.064,-0.1159999999999998,0.09588,0,-1.57,0,Set_Draw
0.2640000000000002,1.064,-0.1159999999999998,0.09572,0,-1.57,0,Set_Draw
0.2720000000000002,1.064,-0.1159999999999998,0.09556,0,-1.57,0,Set_Draw
0.2800000000000002,1.064,-0.1159999999999998,0.0954,0,-1.57,0,Set_Draw
0.2880000000000002,1.064,-0.1159999999999998,0.09524,0,-1.57,0,Set_Draw
0.2960000000000002,1.064,-0.1159999999999998,0.09508000000000001,0,-1.57,0,Set_Draw
0.3040000000000002,1.064,-0.1159999999999998,0.09492,0,-1.57,0,Set_Draw
0.3120000000000002,1.064,-0.1159999999999998,0.09476000000000001,0,-1.57,0,Set_Draw
0.32000000000000023,1.064,-0.1159999999999998,0.0946,0,-1.57,0,Set_Draw
0.32800000000000024,1.064,-0.1159999999999998,0.09444000000000001,0,-1.57,0,Set_Draw
0.33600000000000024,1.064,-0.1159999999999998,0.09428,0,-1.57,0,Set_Draw
0.34400000000000025,1.064,-0.1159999999999998,0.09412000000000001,0,-1.57,0,Set_Draw
0.35200000000000026,1.064,-0.1159999999999998,0.09396,0,-1.57,0,Set_Draw
0.36000000000000026,1.064,-0.1159999999999998,0.09380000000000001,0,-1.57,0,Set_Draw
0.36800000000000027,1.064,-0.1159999999999998,0.09364,0,-1.57,0,Set_Draw
0.3760000000000003,1.064,-0.1159999999999998,0.09348000000000001,0,-1.57,0,Set_Draw
0.3840000000000003,1.064,-0.1159999999999998,0.09332,0,-1.57,0,Set_Draw
0.3920000000000003,1.064,-0.1159999999999998,0.09316,0,-1.57,0,Set_Draw
0.4000000000000003,1.064,-0.1159999999999998,0.093,0,-1.57,0,Set_Draw
0.4080000000000003,1.064,-0.1159999999999998,0.09284,0,-1.57,0,Set_Draw
0.4160000000000003,1.064,-0.1159999999999998,0.09268,0,-1.57,0,Set_Draw
0.4240000000000003,1.064,-0.1159999999999998,0.09252,0,-1.57,0,Set_Draw
0.43200000000000033,1.064,-0.1159999999999998,0.09236000000000001,0,-1.57,0,Set_Draw
0.44000000000000034,1.064,-0.1159999999999998,0.0922,0,-1.57,0,Set_Draw
0.44800000000000034,1.064,-0.1159999999999998,0.09204000000000001,0,-1.57,0,Set_Draw
0.45600000000000035,1.064,-0.1159999999999998,0.09188,0,-1.57,0,Set_Draw
0.46400000000000036,1.064,-0.1159999999999998,0.09172000000000001,0,-1.57,0,Set_Draw
0.47200000000000036,1.064,-0.1159999999999998,0.09156,0,-1.57,0,Set_Draw
0.48000000000000037,1.064,-0.1159999999999998,0.09140000000000001,0,-1.57,0,Set_Draw
0.4880000000000004,1.064,-0.1159999999999998,0.09124,0,-1.57,0,Set_Draw
0.4960000000000004,1.064,-0.1159999999999998,0.09108000000000001,0,-1.57,0,Set_Draw
0.5040000000000003,1.064,-0.1159999999999998,0.09092,0,-1.57,0,Set_Draw
0.5120000000000003,1.064,-0.1159999999999998,0.09076000000000001,0,-1.57,0,Set_Draw
0.5200000000000004,1.064,-0.1159999999999998,0.0906,0,-1.57,0,Set_Draw
0.5280000000000004,1.064,-0.1159999999999998,0.09044,0,-1.57,0,Set_Draw
0.5360000000000004,1.064,-0.1159999999999998,0.09028,0,-1.57,0,Set_Draw
0.5440000000000004,1.064,-0.1159999999999998,0.09012,0,-1.57,0,Set_Draw
0.5520000000000004,1.064,-0.1159999999999998,0.08996000000000001,0,-1.57,0,Set_Draw
0.5600000000000004,1.064,-0.1159999999999998,0.0898,0,-1.57,0,Set_Draw
0.5680000000000004,1.064,-0.1159999999999998,0.08964,0,-1.57,0,Set_Draw
0.5760000000000004,1.064,-0.1159999999999998,0.08948,0,-1.57,0,Set_Draw
0.5840000000000004,1.064,-0.1159999999999998,0.08932000000000001,0,-1.57,0,Set_Draw
0.5920000000000004,1.064,-0.1159999999999998,0.08916,0,-1.57,0,Set_Draw
0.6000000000000004,1.064,-0.1159999999999998,0.08900000000000001,0,-1.57,0,Set_Draw
0.6080000000000004,1.064,-0.1159999999999998,0.08884,0,-1.57,0,Set_Draw
0.6160000000000004,1.064,-0.1159999999999998,0.08868000000000001,0,-1.57,0,Set_Draw
0.6240000000000004,1.064,-0.1159999999999998,0.08852,0,-1.57,0,Set_Draw
0.6320000000000005,1.064,-0.1159999999999998,0.08836000000000001,0,-1.57,0,Set_Draw
0.6400000000000005,1.064,-0.1159999999999998,0.0882,0,-1.57,0,Set_Draw
0.6480000000000005,1.064,-0.1159999999999998,0.08804000000000001,0,-1.57,0,Set_Draw
0.6560000000000005,1.064,-0.1159999999999998,0.08788,0,-1.57,0,Set_Draw
0.6640000000000005,1.064,-0.1159999999999998,0.08772,0,-1.57,0,Set_Draw
0.6720000000000005,1.064,-0.1159999999999998,0.08756,0,-1.57,0,Set_Draw
0.6800000000000005,1.064,-0.1159999999999998,0.0874,0,-1.57,0,Set_Draw
0.6880000000000005,1.064,-0.1159999999999998,0.08724000000000001,0,-1.57,0,Set_Draw
0.6960000000000005,1.064,-0.1159999999999998,0.08708,0,-1.57,0,Set_Draw
0.7040000000000005,1.064,-0.1159999999999998,0.08692000000000001,0,-1.57,0,Set_Draw
0.7120000000000005,1.064,-0.1159999999999998,0.08676,0,-1.57,0,Set_Draw
0.7200000000000005,1.064,-0.1159999999999998,0.08660000000000001,0,-1.57,0,Set_Draw
0.7280000000000005,1.064,-0.1159999999999998,0.08644,0,-1.57,0,Set_Draw
0.7360000000000005,1.064,-0.1159999999999998,0.08628000000000001,0,-1.57,0,Set_Draw
0.7440000000000005,1.064,-0.1159999999999998,0.08612,0,-1.57,0,Set_Draw
0.7520000000000006,1.064,-0.1159999999999998,0.08596000000000001,0,-1.57,0,Set_Draw
0.7600000000000006,1.064,-0.1159999999999998,0.0858,0,-1.57,0,Set_Draw
0.7680000000000006,1.064,-0.1159999999999998,0.08564000000000001,0,-1.57,0,Set_Draw
0.7760000000000006,1.064,-0.1159999999999998,0.08548,0,-1.57,0,Set_Draw
0.7840000000000006,1.064,-0.1159999999999998,0.08532000000000001,0,-1.57,0,Set_Draw
0.7920000000000006,1.064,-0.1159999999999998,0.08516,0,-1.57,0,Set_Draw
0.8000000000000006,1.064,-0.1159999999999998,0.085,0,-1.57,0,Set_Draw
0.8080000000000006,1.064,-0.1159999999999998,0.08484,0,-1.57,0,Set_Draw
0.8160000000000006,1.064,-0.1159999999999998,0.08468,0,-1.57,0,Set_Draw
0.8240000000000006,1.064,-0.1159999999999998,0.08452000000000001,0,-1.57,0,Set_Draw
0.8320000000000006,1.064,-0.1159999999999998,0.08436,0,-1.57,0,Set_Draw
0.8400000000000006,1.064,-0.1159999999999998,0.0842,0,-1.57,0,Set_Draw
0.8480000000000006,1.064,-0.1159999999999998,0.08404,0,-1.57,0,Set_Draw
0.8560000000000006,1.064,-0.1159999999999998,0.08388000000000001,0,-1.57,0,Set_Draw
0.8640000000000007,1.064,-0.1159999999999998,0.08372,0,-1.57,0,Set_Draw
0.8720000000000007,1.064,-0.1159999999999998,0.08356000000000001,0,-1.57,0,Set_Draw
0.8800000000000007,1.064,-0.1159999999999998,0.0834,0,-1.57,0,Set_Draw
0.8880000000000007,1.064,-0.1159999999999998,0.08324000000000001,0,-1.57,0,Set_Draw
0.8960000000000007,1.064,-0.1159999999999998,0.08308,0,-1.57,0,Set_Draw
0.9040000000000007,1.064,-0.1159999999999998,0.08292000000000001,0,-1.57,0,Set_Draw
0.9120000000000007,1.064,-0.1159999999999998,0.08276,0,-1.57,0,Set_Draw
0.9200000000000007,1.064,-0.1159999999999998,0.0826,0,-1.57,0,Set_Draw
0.9280000000000007,1.064,-0.1159999999999998,0.08244,0,-1.57,0,Set_Draw
0.9360000000000007,1.064,-0.1159999999999998,0.08228,0,-1.57,0,Set_Draw
0.9440000000000007,1.064,-0.1159999999999998,0.08212,0,-1.57,0,Set_Draw
0.9520000000000007,1.064,-0.1159999999999998,0.08196,0,-1.57,0,Set_Draw
0.9600000000000007,1.064,-0.1159999999999998,0.08180000000000001,0,-1.57,0,Set_Draw
0.9680000000000007,1.064,-0.1159999999999998,0.08164,0,-1.57,0,Set_Draw
0.9760000000000008,1.064,-0.1159999999999998,0.08148,0,-1.57,0,Set_Draw
0.9840000000000008,1.064,-0.1159999999999998,0.08132,0,-1.57,0,Set_Draw
0.9920000000000008,1.064,-0.1159999999999998,0.08116000000000001,0,-1.57,0,Set_Draw
1.0000000000000007,1.064,-0.1159999999999998,0.081,0,-1.57,0,Set_Draw
1.0080000000000007,1.064,-0.1159999999999998,0.08084,0,-1.57,0,Set_Draw
1.0160000000000007,1.064,-0.1159999999999998,0.08068,0,-1.57,0,Set_Draw
1.0240000000000007,1.064,-0.1159999999999998,0.08052000000000001,0,-1.57,0,Set_Draw
1.0320000000000007,1.064,-0.1159999999999998,0.08036,0,-1.57,0,Set_Draw
1.0400000000000007,1.064,-0.1159999999999998,0.08020000000000001,0,-1.57,0,Set_Draw
1.0480000000000007,1.064,-0.1159999999999998,0.08004,0,-1.57,0,Set_Draw
1.0560000000000007,1.064,-0.1159999999999998,0.07988,0,-1.57,0,Set_Draw
1.0640000000000007,1.064,-0.1159999999999998,0.07972,0,-1.57,0,Set_Draw
1.0720000000000007,1.064,-0.1159999999999998,0.07956,0,-1.57,0,Set_Draw
1.0800000000000007,1.064,-0.1159999999999998,0.0794,0,-1.57,0,Set_Draw
1.0880000000000007,1.064,-0.1159999999999998,0.07924,0,-1.57,0,Set_Draw
1.0960000000000008,1.064,-0.1159999999999998,0.07908,0,-1.57,0,Set_Draw
1.1040000000000008,1.064,-0.1159999999999998,0.07892,0,-1.57,0,Set_Draw
1.1120000000000008,1.064,-0.1159999999999998,0.07876,0,-1.57,0,Set_Draw
1.1200000000000008,1.064,-0.1159999999999998,0.0786,0,-1.57,0,Set_Draw
1.1280000000000008,1.064,-0.1159999999999998,0.07844000000000001,0,-1.57,0,Set_Draw
1.1360000000000008,1.064,-0.1159999999999998,0.07828,0,-1.57,0,Set_Draw
1.1440000000000008,1.064,-0.1159999999999998,0.07812,0,-1.57,0,Set_Draw
1.1520000000000008,1.064,-0.1159999999999998,0.07796,0,-1.57,0,Set_Draw
1.1600000000000008,1.064,-0.1159999999999998,0.07780000000000001,0,-1.57,0,Set_Draw
1.1680000000000008,1.064,-0.1159999999999998,0.07764000000000001,0,-1.57,0,Set_Draw
1.1760000000000008,1.064,-0.1159999999999998,0.07748000000000001,0,-1.57,0,Set_Draw
1.1840000000000008,1.064,-0.1159999999999998,0.07732,0,-1.57,0,Set_Draw
1.1920000000000008,1.064,-0.1159999999999998,0.07716,0,-1.57,0,Set_Draw
1.2000000000000008,1.064,-0.1159999999999998,0.07700000000000001,0,-1.57,0,Set_Draw
1.2080000000000009,1.064,-0.1159999999999998,0.07684,0,-1.57,0,Set_Draw
1.2160000000000009,1.064,-0.1159999999999998,0.07668,0,-1.57,0,Set_Draw
1.2240000000000009,1.064,-0.1159999999999998,0.07652,0,-1.57,0,Set_Draw
1.2320000000000009,1.064,-0.1159999999999998,0.07636000000000001,0,-1.57,0,Set_Draw
1.2400000000000009,1.064,-0.1159999999999998,0.0762,0,-1.57,0,Set_Draw
1.2480000000000009,1.064,-0.1159999999999998,0.07604000000000001,0,-1.57,0,Set_Draw
1.256000000000001,1.064,-0.1159999999999998,0.07588,0,-1.57,0,Set_Draw
1.264000000000001,1.064,-0.1159999999999998,0.07572000000000001,0,-1.57,0,Set_Draw
1.272000000000001,1.064,-0.1159999999999998,0.07556,0,-1.57,0,Set_Draw
1.280000000000001,1.064,-0.1159999999999998,0.07540000000000001,0,-1.57,0,Set_Draw
1.288000000000001,1.064,-0.1159999999999998,0.07524,0,-1.57,0,Set_Draw
1.296000000000001,1.064,-0.1159999999999998,0.07508000000000001,0,-1.57,0,Set_Draw
1.304000000000001,1.064,-0.1159999999999998,0.07492,0,-1.57,0,Set_Draw
1.312000000000001,1.064,-0.1159999999999998,0.07476000000000001,0,-1.57,0,Set_Draw
1.320000000000001,1.064,-0.1159999999999998,0.0746,0,-1.57,0,Set_Draw
1.328000000000001,1.064,-0.1159999999999998,0.07444,0,-1.57,0,Set_Draw
1.336000000000001,1.064,-0.1159999999999998,0.07428000000000001,0,-1.57,0,Set_Draw
1.344000000000001,1.064,-0.1159999999999998,0.07412,0,-1.57,0,Set_Draw
1.352000000000001,1.064,-0.1159999999999998,0.07396,0,-1.57,0,Set_Draw
1.360000000000001,1.064,-0.1159999999999998,0.0738,0,-1.57,0,Set_Draw
1.368000000000001,1.064,-0.1159999999999998,0.07364000000000001,0,-1.57,0,Set_Draw
1.376000000000001,1.064,-0.1159999999999998,0.07348,0,-1.57,0,Set_Draw
1.384000000000001,1.064,-0.1159999999999998,0.07332,0,-1.57,0,Set_Draw
1.392000000000001,1.064,-0.1159999999999998,0.07316,0,-1.57,0,Set_Draw
1.400000000000001,1.064,-0.1159999999999998,0.07300000000000001,0,-1.57,0,Set_Draw
1.408000000000001,1.064,-0.1159999999999998,0.07284000000000002,0,-1.57,0,Set_Draw
1.416000000000001,1.064,-0.1159999999999998,0.07268000000000001,0,-1.57,0,Set_Draw
1.424000000000001,1.064,-0.1159999999999998,0.07252,0,-1.57,0,Set_Draw
1.432000000000001,1.064,-0.1159999999999998,0.07236000000000001,0,-1.57,0,Set_Draw
1.440000000000001,1.064,-0.1159999999999998,0.07220000000000001,0,-1.57,0,Set_Draw
1.448000000000001,1.064,-0.1159999999999998,0.07204,0,-1.57,0,Set_Draw
1.456000000000001,1.064,-0.1159999999999998,0.07188,0,-1.57,0,Set_Draw
1.464000000000001,1.064,-0.1159999999999998,0.07172,0,-1.57,0,Set_Draw
1.472000000000001,1.064,-0.1159999999999998,0.07156000000000001,0,-1.57,0,Set_Draw
1.480000000000001,1.064,-0.1159999999999998,0.0714,0,-1.57,0,Set_Draw
1.488000000000001,1.064,-0.1159999999999998,0.07124,0,-1.57,0,Set_Draw
1.496000000000001,1.064,-0.1159999999999998,0.07108,0,-1.57,0,Set_Draw
1.5040000000000011,1.064,-0.1159999999999998,0.07092000000000001,0,-1.57,0,Set_Draw
1.5120000000000011,1.064,-0.1159999999999998,0.07076,0,-1.57,0,Set_Draw
1.5200000000000011,1.064,-0.1159999999999998,0.07060000000000001,0,-1.57,0,Set_Draw
1.5280000000000011,1.064,-0.1159999999999998,0.07044,0,-1.57,0,Set_Draw
1.5360000000000011,1.064,-0.1159999999999998,0.07028000000000001,0,-1.57,0,Set_Draw
1.5440000000000011,1.064,-0.1159999999999998,0.07012,0,-1.57,0,Set_Draw
1.5520000000000012,1.064,-0.1159999999999998,0.06996000000000001,0,-1.57,0,Set_Draw
1.5600000000000012,1.064,-0.1159999999999998,0.0698,0,-1.57,0,Set_Draw
1.5680000000000012,1.064,-0.1159999999999998,0.06964000000000001,0,-1.57,0,Set_Draw
1.5760000000000012,1.064,-0.1159999999999998,0.06948,0,-1.57,0,Set_Draw
1.5840000000000012,1.064,-0.1159999999999998,0.06932,0,-1.57,0,Set_Draw
1.5920000000000012,1.064,-0.1159999999999998,0.06916,0,-1.57,0,Set_Draw
1.6000000000000012,1.064,-0.1159999999999998,0.069,0,-1.57,0,Set_Draw
1.6080000000000012,1.064,-0.1159999999999998,0.06884000000000001,0,-1.57,0,Set_Draw
1.6160000000000012,1.064,-0.1159999999999998,0.06868,0,-1.57,0,Set_Draw
1.6240000000000012,1.064,-0.1159999999999998,0.06852,0,-1.57,0,Set_Draw
1.6320000000000012,1.064,-0.1159999999999998,0.06836,0,-1.57,0,Set_Draw
1.6400000000000012,1.064,-0.1159999999999998,0.06820000000000001,0,-1.57,0,Set_Draw
1.6480000000000012,1.064,-0.1159999999999998,0.06804,0,-1.57,0,Set_Draw
1.6560000000000012,1.064,-0.1159999999999998,0.06788,0,-1.57,0,Set_Draw
1.6640000000000013,1.064,-0.1159999999999998,0.06772,0,-1.57,0,Set_Draw
1.6720000000000013,1.064,-0.1159999999999998,0.06756000000000001,0,-1.57,0,Set_Draw
1.6800000000000013,1.064,-0.1159999999999998,0.06740000000000002,0,-1.57,0,Set_Draw
1.6880000000000013,1.064,-0.1159999999999998,0.06724000000000001,0,-1.57,0,Set_Draw
1.6960000000000013,1.064,-0.1159999999999998,0.06708,0,-1.57,0,Set_Draw
1.7040000000000013,1.064,-0.1159999999999998,0.06692000000000001,0,-1.57,0,Set_Draw
1.7120000000000013,1.064,-0.1159999999999998,0.06676000000000001,0,-1.57,0,Set_Draw
1.7200000000000013,1.064,-0.1159999999999998,0.0666,0,-1.57,0,Set_Draw
1.7280000000000013,1.064,-0.1159999999999998,0.06644,0,-1.57,0,Set_Draw
1.7360000000000013,1.064,-0.1159999999999998,0.06628,0,-1.57,0,Set_Draw
1.7440000000000013,1.064,-0.1159999999999998,0.06612000000000001,0,-1.57,0,Set_Draw
1.7520000000000013,1.064,-0.1159999999999998,0.06596,0,-1.57,0,Set_Draw
1.7600000000000013,1.064,-0.1159999999999998,0.0658,0,-1.57,0,Set_Draw
1.7680000000000013,1.064,-0.1159999999999998,0.06564,0,-1.57,0,Set_Draw
1.7760000000000014,1.064,-0.1159999999999998,0.06548000000000001,0,-1.57,0,Set_Draw
1.7840000000000014,1.064,-0.1159999999999998,0.06532,0,-1.57,0,Set_Draw
1.7920000000000014,1.064,-0.1159999999999998,0.06516,0,-1.57,0,Set_Draw
1.8000000000000014,1.064,-0.1159999999999998,0.065,0,-1.57,0,Set_Draw
1.8080000000000014,1.064,-0.1159999999999998,0.06484000000000001,0,-1.57,0,Set_Draw
1.8160000000000014,1.064,-0.1159999999999998,0.06468,0,-1.57,0,Set_Draw
1.8240000000000014,1.064,-0.1159999999999998,0.06452,0,-1.57,0,Set_Draw
1.8320000000000014,1.064,-0.1159999999999998,0.06436,0,-1.57,0,Set_Draw
1.8400000000000014,1.064,-0.1159999999999998,0.06420000000000001,0,-1.57,0,Set_Draw
1.8480000000000014,1.064,-0.1159999999999998,0.06404000000000001,0,-1.57,0,Set_Draw
1.8560000000000014,1.064,-0.1159999999999998,0.06388,0,-1.57,0,Set_Draw
1.8640000000000014,1.064,-0.1159999999999998,0.06372,0,-1.57,0,Set_Draw
1.8720000000000014,1.064,-0.1159999999999998,0.06356,0,-1.57,0,Set_Draw
1.8800000000000014,1.064,-0.1159999999999998,0.06340000000000001,0,-1.57,0,Set_Draw
1.8880000000000015,1.064,-0.1159999999999998,0.06324,0,-1.57,0,Set_Draw
1.8960000000000015,1.064,-0.1159999999999998,0.06308,0,-1.57,0,Set_Draw
1.9040000000000015,1.064,-0.1159999999999998,0.06292,0,-1.57,0,Set_Draw
1.9120000000000015,1.064,-0.1159999999999998,0.06276000000000001,0,-1.57,0,Set_Draw
1.9200000000000015,1.064,-0.1159999999999998,0.06260000000000002,0,-1.57,0,Set_Draw
1.9280000000000015,1.064,-0.1159999999999998,0.06244000000000001,0,-1.57,0,Set_Draw
1.9360000000000015,1.064,-0.1159999999999998,0.06228000000000001,0,-1.57,0,Set_Draw
1.9440000000000015,1.064,-0.1159999999999998,0.06212000000000001,0,-1.57,0,Set_Draw
1.9520000000000015,1.064,-0.1159999999999998,0.06196000000000001,0,-1.57,0,Set_Draw
1.9600000000000015,1.064,-0.1159999999999998,0.06180000000000001,0,-1.57,0,Set_Draw
1.9680000000000015,1.064,-0.1159999999999998,0.06164000000000001,0,-1.57,0,Set_Draw
1.9760000000000015,1.064,-0.1159999999999998,0.06148000000000001,0,-1.57,0,Set_Draw
1.9840000000000015,1.064,-0.1159999999999998,0.061320000000000006,0,-1.57,0,Set_Draw
1.9920000000000015,1.064,-0.1159999999999998,0.061160000000000006,0,-1.57,0,Set_Draw
2.0000000000000013,1.064,-0.1159999999999998,0.061000000000000006,0,-1.57,0,Set_Draw
2.0080000000000013,1.064,-0.1159999999999998,0.060840000000000005,0,-1.57,0,Set_Draw
2.0160000000000013,1.064,-0.1159999999999998,0.060680000000000005,0,-1.57,0,Set_Draw
2.0240000000000014,1.064,-0.1159999999999998,0.060520000000000004,0,-1.57,0,Set_Draw
2.0320000000000014,1.064,-0.1159999999999998,0.060360000000000004,0,-1.57,0,Set_Draw
2.0400000000000014,1.064,-0.1159999999999998,0.060200000000000004,0,-1.57,0,Set_Draw
2.0480000000000014,1.064,-0.1159999999999998,0.06004,0,-1.57,0,Set_Draw
2.0560000000000014,1.064,-0.1159999999999998,0.05988,0,-1.57,0,Set_Draw
2.0640000000000014,1.064,-0.1159999999999998,0.05972,0,-1.57,0,Set_Draw
2.0720000000000014,1.064,-0.1159999999999998,0.05956,0,-1.57,0,Set_Draw
2.0800000000000014,1.064,-0.1159999999999998,0.0594,0,-1.57,0,Set_Draw
2.0880000000000014,1.064,-0.1159999999999998,0.05924,0,-1.57,0,Set_Draw
2.0960000000000014,1.064,-0.1159999999999998,0.05908,0,-1.57,0,Set_Draw
2.1040000000000014,1.064,-0.1159999999999998,0.05892000000000001,0,-1.57,0,Set_Draw
2.1120000000000014,1.064,-0.1159999999999998,0.05876000000000001,0,-1.57,0,Set_Draw
2.1200000000000014,1.064,-0.1159999999999998,0.058600000000000006,0,-1.57,0,Set_Draw
2.1280000000000014,1.064,-0.1159999999999998,0.058440000000000006,0,-1.57,0,Set_Draw
2.1360000000000015,1.064,-0.1159999999999998,0.058280000000000005,0,-1.57,0,Set_Draw
2.1440000000000015,1.064,-0.1159999999999998,0.058120000000000005,0,-1.57,0,Set_Draw
2.1520000000000015,1.064,-0.1159999999999998,0.057960000000000005,0,-1.57,0,Set_Draw
2.1600000000000015,1.064,-0.1159999999999998,0.057800000000000004,0,-1.57,0,Set_Draw
2.1680000000000015,1.064,-0.1159999999999998,0.057640000000000004,0,-1.57,0,Set_Draw
2.1760000000000015,1.064,-0.1159999999999998,0.05748,0,-1.57,0,Set_Draw
2.1840000000000015,1.064,-0.1159999999999998,0.05732,0,-1.57,0,Set_Draw
2.1920000000000015,1.064,-0.1159999999999998,0.05716,0,-1.57,0,Set_Draw
2.2000000000000015,1.064,-0.1159999999999998,0.057,0,-1.57,0,Set_Draw
2.2080000000000015,1.064,-0.1159999999999998,0.05684,0,-1.57,0,Set_Draw
2.2160000000000015,1.064,-0.1159999999999998,0.05668,0,-1.57,0,Set_Draw
2.2240000000000015,1.064,-0.1159999999999998,0.05652,0,-1.57,0,Set_Draw
2.2320000000000015,1.064,-0.1159999999999998,0.05636,0,-1.57,0,Set_Draw
2.2400000000000015,1.064,-0.1159999999999998,0.0562,0,-1.57,0,Set_Draw
2.2480000000000016,1.064,-0.1159999999999998,0.05604,0,-1.57,0,Set_Draw
2.2560000000000016,1.064,-0.1159999999999998,0.05588,0,-1.57,0,Set_Draw
2.2640000000000016,1.064,-0.1159999999999998,0.05572,0,-1.57,0,Set_Draw
2.2720000000000016,1.064,-0.1159999999999998,0.05556,0,-1.57,0,Set_Draw
2.2800000000000016,1.064,-0.1159999999999998,0.0554,0,-1.57,0,Set_Draw
2.2880000000000016,1.064,-0.1159999999999998,0.05524,0,-1.57,0,Set_Draw
2.2960000000000016,1.064,-0.1159999999999998,0.05508,0,-1.57,0,Set_Draw
2.3040000000000016,1.064,-0.1159999999999998,0.054920000000000004,0,-1.57,0,Set_Draw
2.3120000000000016,1.064,-0.1159999999999998,0.05476000000000001,0,-1.57,0,Set_Draw
2.3200000000000016,1.064,-0.1159999999999998,0.05460000000000001,0,-1.57,0,Set_Draw
2.3280000000000016,1.064,-0.1159999999999998,0.05444000000000001,0,-1.57,0,Set_Draw
2.3360000000000016,1.064,-0.1159999999999998,0.05428000000000001,0,-1.57,0,Set_Draw
2.3440000000000016,1.064,-0.1159999999999998,0.05412000000000001,0,-1.57,0,Set_Draw
2.3520000000000016,1.064,-0.1159999999999998,0.05396000000000001,0,-1.57,0,Set_Draw
2.3600000000000017,1.064,-0.1159999999999998,0.05380000000000001,0,-1.57,0,Set_Draw
2.3680000000000017,1.064,-0.1159999999999998,0.05364000000000001,0,-1.57,0,Set_Draw
2.3760000000000017,1.064,-0.1159999999999998,0.05348000000000001,0,-1.57,0,Set_Draw
2.3840000000000017,1.064,-0.1159999999999998,0.053320000000000006,0,-1.57,0,Set_Draw
2.3920000000000017,1.064,-0.1159999999999998,0.053160000000000006,0,-1.57,0,Set_Draw
2.4000000000000017,1.064,-0.1159999999999998,0.053000000000000005,0,-1.57,0,Set_Draw
2.4080000000000017,1.064,-0.1159999999999998,0.052840000000000005,0,-1.57,0,Set_Draw
2.4160000000000017,1.064,-0.1159999999999998,0.052680000000000005,0,-1.57,0,Set_Draw
2.4240000000000017,1.064,-0.1159999999999998,0.052520000000000004,0,-1.57,0,Set_Draw
2.4320000000000017,1.064,-0.1159999999999998,0.052360000000000004,0,-1.57,0,Set_Draw
2.4400000000000017,1.064,-0.1159999999999998,0.0522,0,-1.57,0,Set_Draw
2.4480000000000017,1.064,-0.1159999999999998,0.05204,0,-1.57,0,Set_Draw
2.4560000000000017,1.064,-0.1159999999999998,0.05188000000000001,0,-1.57,0,Set_Draw
2.4640000000000017,1.064,-0.1159999999999998,0.05172000000000001,0,-1.57,0,Set_Draw
2.4720000000000018,1.064,-0.1159999999999998,0.05156000000000001,0,-1.57,0,Set_Draw
2.4800000000000018,1.064,-0.1159999999999998,0.05140000000000001,0,-1.57,0,Set_Draw
2.4880000000000018,1.064,-0.1159999999999998,0.05124000000000001,0,-1.57,0,Set_Draw
2.4960000000000018,1.064,-0.1159999999999998,0.05108000000000001,0,-1.57,0,Set_Draw
2.504000000000002,1.064,-0.1159999999999998,0.05092000000000001,0,-1.57,0,Set_Draw
2.512000000000002,1.064,-0.1159999999999998,0.050760000000000007,0,-1.57,0,Set_Draw
2.520000000000002,1.064,-0.1159999999999998,0.050600000000000006,0,-1.57,0,Set_Draw
2.528000000000002,1.064,-0.1159999999999998,0.050440000000000006,0,-1.57,0,Set_Draw
2.536000000000002,1.064,-0.1159999999999998,0.050280000000000005,0,-1.57,0,Set_Draw
2.544000000000002,1.064,-0.1159999999999998,0.050120000000000005,0,-1.57,0,Set_Draw
2.552000000000002,1.064,-0.1159999999999998,0.049960000000000004,0,-1.57,0,Set_Draw
2.560000000000002,1.064,-0.1159999999999998,0.049800000000000004,0,-1.57,0,Set_Draw
2.568000000000002,1.064,-0.1159999999999998,0.049640000000000004,0,-1.57,0,Set_Draw
2.576000000000002,1.064,-0.1159999999999998,0.04948,0,-1.57,0,Set_Draw
2.584000000000002,1.064,-0.1159999999999998,0.04932,0,-1.57,0,Set_Draw
2.592000000000002,1.064,-0.1159999999999998,0.04916,0,-1.57,0,Set_Draw
2.600000000000002,1.064,-0.1159999999999998,0.049,0,-1.57,0,Set_Draw
2.608000000000002,1.064,-0.1159999999999998,0.04884,0,-1.57,0,Set_Draw
2.616000000000002,1.064,-0.1159999999999998,0.04868,0,-1.57,0,Set_Draw
2.624000000000002,1.064,-0.1159999999999998,0.04852,0,-1.57,0,Set_Draw
2.632000000000002,1.064,-0.1159999999999998,0.04836,0,-1.57,0,Set_Draw
2.640000000000002,1.064,-0.1159999999999998,0.0482,0,-1.57,0,Set_Draw
2.648000000000002,1.064,-0.1159999999999998,0.04804,0,-1.57,0,Set_Draw
2.656000000000002,1.064,-0.1159999999999998,0.047880000000000006,0,-1.57,0,Set_Draw
2.664000000000002,1.064,-0.1159999999999998,0.047720000000000005,0,-1.57,0,Set_Draw
2.672000000000002,1.064,-0.1159999999999998,0.047560000000000005,0,-1.57,0,Set_Draw
2.680000000000002,1.064,-0.1159999999999998,0.047400000000000005,0,-1.57,0,Set_Draw
2.688000000000002,1.064,-0.1159999999999998,0.047240000000000004,0,-1.57,0,Set_Draw
2.696000000000002,1.064,-0.1159999999999998,0.047080000000000004,0,-1.57,0,Set_Draw
2.704000000000002,1.064,-0.1159999999999998,0.04692,0,-1.57,0,Set_Draw
2.712000000000002,1.064,-0.1159999999999998,0.04676,0,-1.57,0,Set_Draw
2.720000000000002,1.064,-0.1159999999999998,0.0466,0,-1.57,0,Set_Draw
2.728000000000002,1.064,-0.1159999999999998,0.04644,0,-1.57,0,Set_Draw
2.736000000000002,1.064,-0.1159999999999998,0.04628,0,-1.57,0,Set_Draw
2.744000000000002,1.064,-0.1159999999999998,0.04612,0,-1.57,0,Set_Draw
2.752000000000002,1.064,-0.1159999999999998,0.04596,0,-1.57,0,Set_Draw
2.760000000000002,1.064,-0.1159999999999998,0.0458,0,-1.57,0,Set_Draw
2.768000000000002,1.064,-0.1159999999999998,0.04564,0,-1.57,0,Set_Draw
2.776000000000002,1.064,-0.1159999999999998,0.04548,0,-1.57,0,Set_Draw
2.784000000000002,1.064,-0.1159999999999998,0.04532,0,-1.57,0,Set_Draw
2.792000000000002,1.064,-0.1159999999999998,0.04516,0,-1.57,0,Set_Draw
2.800000000000002,1.064,-0.1159999999999998,0.045,0,-1.57,0,Set_Draw
2.808000000000002,1.064,-0.1159999999999998,0.04484,0,-1.57,0,Set_Draw
2.816000000000002,1.064,-0.1159999999999998,0.04468000000000001,0,-1.57,0,Set_Draw
2.824000000000002,1.064,-0.1159999999999998,0.04452000000000001,0,-1.57,0,Set_Draw
2.832000000000002,1.064,-0.1159999999999998,0.04436000000000001,0,-1.57,0,Set_Draw
2.840000000000002,1.064,-0.1159999999999998,0.04420000000000001,0,-1.57,0,Set_Draw
2.848000000000002,1.064,-0.1159999999999998,0.04404000000000001,0,-1.57,0,Set_Draw
2.856000000000002,1.064,-0.1159999999999998,0.04388000000000001,0,-1.57,0,Set_Draw
2.864000000000002,1.064,-0.1159999999999998,0.04372000000000001,0,-1.57,0,Set_Draw
2.872000000000002,1.064,-0.1159999999999998,0.04356000000000001,0,-1.57,0,Set_Draw
2.880000000000002,1.064,-0.1159999999999998,0.04340000000000001,0,-1.57,0,Set_Draw
2.888000000000002,1.064,-0.1159999999999998,0.04324000000000001,0,-1.57,0,Set_Draw
2.896000000000002,1.064,-0.1159999999999998,0.04308000000000001,0,-1.57,0,Set_Draw
2.904000000000002,1.064,-0.1159999999999998,0.04292000000000001,0,-1.57,0,Set_Draw
2.912000000000002,1.064,-0.1159999999999998,0.042760000000000006,0,-1.57,0,Set_Draw
2.920000000000002,1.064,-0.1159999999999998,0.042600000000000006,0,-1.57,0,Set_Draw
2.928000000000002,1.064,-0.1159999999999998,0.042440000000000005,0,-1.57,0,Set_Draw
2.936000000000002,1.064,-0.1159999999999998,0.042280000000000005,0,-1.57,0,Set_Draw
2.944000000000002,1.064,-0.1159999999999998,0.042120000000000005,0,-1.57,0,Set_Draw
2.952000000000002,1.064,-0.1159999999999998,0.041960000000000004,0,-1.57,0,Set_Draw
2.960000000000002,1.064,-0.1159999999999998,0.041800000000000004,0,-1.57,0,Set_Draw
2.968000000000002,1.064,-0.1159999999999998,0.04164,0,-1.57,0,Set_Draw
2.976000000000002,1.064,-0.1159999999999998,0.04148,0,-1.57,0,Set_Draw
2.984000000000002,1.064,-0.1159999999999998,0.04132,0,-1.57,0,Set_Draw
2.992000000000002,1.064,-0.1159999999999998,0.04116,0,-1.57,0,Set_Draw
3.000000000000002,1.064,-0.1159999999999998,0.04100000000000001,0,-1.57,0,Set_Draw
3.0080000000000022,1.064,-0.1159999999999998,0.04084000000000001,0,-1.57,0,Set_Draw
3.0160000000000022,1.064,-0.1159999999999998,0.04068000000000001,0,-1.57,0,Set_Draw
3.0240000000000022,1.064,-0.1159999999999998,0.04052000000000001,0,-1.57,0,Set_Draw
3.0320000000000022,1.064,-0.1159999999999998,0.04036000000000001,0,-1.57,0,Set_Draw
3.0400000000000023,1.064,-0.1159999999999998,0.04020000000000001,0,-1.57,0,Set_Draw
3.0480000000000023,1.064,-0.1159999999999998,0.040040000000000006,0,-1.57,0,Set_Draw
3.0560000000000023,1.064,-0.1159999999999998,0.039880000000000006,0,-1.57,0,Set_Draw
3.0640000000000023,1.064,-0.1159999999999998,0.039720000000000005,0,-1.57,0,Set_Draw
3.0720000000000023,1.064,-0.1159999999999998,0.039560000000000005,0,-1.57,0,Set_Draw
3.0800000000000023,1.064,-0.1159999999999998,0.039400000000000004,0,-1.57,0,Set_Draw
3.0880000000000023,1.064,-0.1159999999999998,0.039240000000000004,0,-1.57,0,Set_Draw
3.0960000000000023,1.064,-0.1159999999999998,0.039080000000000004,0,-1.57,0,Set_Draw
3.1040000000000023,1.064,-0.1159999999999998,0.03892,0,-1.57,0,Set_Draw
3.1120000000000023,1.064,-0.1159999999999998,0.03876,0,-1.57,0,Set_Draw
3.1200000000000023,1.064,-0.1159999999999998,0.0386,0,-1.57,0,Set_Draw
3.1280000000000023,1.064,-0.1159999999999998,0.03844,0,-1.57,0,Set_Draw
3.1360000000000023,1.064,-0.1159999999999998,0.03828,0,-1.57,0,Set_Draw
3.1440000000000023,1.064,-0.1159999999999998,0.03812,0,-1.57,0,Set_Draw
3.1520000000000024,1.064,-0.1159999999999998,0.03796,0,-1.57,0,Set_Draw
3.1600000000000024,1.064,-0.1159999999999998,0.0378,0,-1.57,0,Set_Draw
3.1680000000000024,1.064,-0.1159999999999998,0.03764,0,-1.57,0,Set_Draw
3.1760000000000024,1.064,-0.1159999999999998,0.03748,0,-1.57,0,Set_Draw
3.1840000000000024,1.064,-0.1159999999999998,0.037320000000000006,0,-1.57,0,Set_Draw
3.1920000000000024,1.064,-0.1159999999999998,0.03716,0,-1.57,0,Set_Draw
3.2000000000000024,1.064,-0.1159999999999998,0.037000000000000005,0,-1.57,0,Set_Draw
3.2080000000000024,1.064,-0.1159999999999998,0.03684000000000001,0,-1.57,0,Set_Draw
3.2160000000000024,1.064,-0.1159999999999998,0.036680000000000004,0,-1.57,0,Set_Draw
3.2240000000000024,1.064,-0.1159999999999998,0.03652000000000001,0,-1.57,0,Set_Draw
3.2320000000000024,1.064,-0.1159999999999998,0.03636,0,-1.57,0,Set_Draw
3.2400000000000024,1.064,-0.1159999999999998,0.036199999999999996,0,-1.57,0,Set_Draw
3.2480000000000024,1.064,-0.1159999999999998,0.03604,0,-1.57,0,Set_Draw
3.2560000000000024,1.064,-0.1159999999999998,0.035879999999999995,0,-1.57,0,Set_Draw
3.2640000000000025,1.064,-0.1159999999999998,0.03572,0,-1.57,0,Set_Draw
3.2720000000000025,1.064,-0.1159999999999998,0.035559999999999994,0,-1.57,0,Set_Draw
3.2800000000000025,1.064,-0.1159999999999998,0.0354,0,-1.57,0,Set_Draw
3.2880000000000025,1.064,-0.1159999999999998,0.035239999999999994,0,-1.57,0,Set_Draw
3.2960000000000025,1.064,-0.1159999999999998,0.03508,0,-1.57,0,Set_Draw
3.3040000000000025,1.064,-0.1159999999999998,0.03492000000000001,0,-1.57,0,Set_Draw
3.3120000000000025,1.064,-0.1159999999999998,0.03476,0,-1.57,0,Set_Draw
3.3200000000000025,1.064,-0.1159999999999998,0.034600000000000006,0,-1.57,0,Set_Draw
3.3280000000000025,1.064,-0.1159999999999998,0.03444,0,-1.57,0,Set_Draw
3.3360000000000025,1.064,-0.1159999999999998,0.034280000000000005,0,-1.57,0,Set_Draw
3.3440000000000025,1.064,-0.1159999999999998,0.03412000000000001,0,-1.57,0,Set_Draw
3.3520000000000025,1.064,-0.1159999999999998,0.033960000000000004,0,-1.57,0,Set_Draw
3.3600000000000025,1.064,-0.1159999999999998,0.03380000000000001,0,-1.57,0,Set_Draw
3.3680000000000025,1.064,-0.1159999999999998,0.03364,0,-1.57,0,Set_Draw
3.3760000000000026,1.064,-0.1159999999999998,0.03348000000000001,0,-1.57,0,Set_Draw
3.3840000000000026,1.064,-0.1159999999999998,0.03332,0,-1.57,0,Set_Draw
3.3920000000000026,1.064,-0.1159999999999998,0.03316000000000001,0,-1.57,0,Set_Draw
3.4000000000000026,1.064,-0.1159999999999998,0.033,0,-1.57,0,Set_Draw
3.4080000000000026,1.064,-0.1159999999999998,0.03284000000000001,0,-1.57,0,Set_Draw
3.4160000000000026,1.064,-0.1159999999999998,0.03268,0,-1.57,0,Set_Draw
3.4240000000000026,1.064,-0.1159999999999998,0.03252000000000001,0,-1.57,0,Set_Draw
3.4320000000000026,1.064,-0.1159999999999998,0.03236,0,-1.57,0,Set_Draw
3.4400000000000026,1.064,-0.1159999999999998,0.032200000000000006,0,-1.57,0,Set_Draw
3.4480000000000026,1.064,-0.1159999999999998,0.03204,0,-1.57,0,Set_Draw
3.4560000000000026,1.064,-0.1159999999999998,0.031880000000000006,0,-1.57,0,Set_Draw
3.4640000000000026,1.064,-0.1159999999999998,0.03172000000000001,0,-1.57,0,Set_Draw
3.4720000000000026,1.064,-0.1159999999999998,0.031560000000000005,0,-1.57,0,Set_Draw
3.4800000000000026,1.064,-0.1159999999999998,0.03140000000000001,0,-1.57,0,Set_Draw
3.4880000000000027,1.064,-0.1159999999999998,0.031240000000000004,0,-1.57,0,Set_Draw
3.4960000000000027,1.064,-0.1159999999999998,0.03108000000000001,0,-1.57,0,Set_Draw
3.5040000000000027,1.064,-0.1159999999999998,0.030920000000000003,0,-1.57,0,Set_Draw
3.5120000000000027,1.064,-0.1159999999999998,0.03076000000000001,0,-1.57,0,Set_Draw
3.5200000000000027,1.064,-0.1159999999999998,0.030600000000000002,0,-1.57,0,Set_Draw
3.5280000000000027,1.064,-0.1159999999999998,0.03044000000000001,0,-1.57,0,Set_Draw
3.5360000000000027,1.064,-0.1159999999999998,0.03028,0,-1.57,0,Set_Draw
3.5440000000000027,1.064,-0.1159999999999998,0.030120000000000008,0,-1.57,0,Set_Draw
3.5520000000000027,1.064,-0.1159999999999998,0.02996,0,-1.57,0,Set_Draw
3.5600000000000027,1.064,-0.1159999999999998,0.029800000000000007,0,-1.57,0,Set_Draw
3.5680000000000027,1.064,-0.1159999999999998,0.02964,0,-1.57,0,Set_Draw
3.5760000000000027,1.064,-0.1159999999999998,0.029480000000000006,0,-1.57,0,Set_Draw
3.5840000000000027,1.064,-0.1159999999999998,0.02932,0,-1.57,0,Set_Draw
3.5920000000000027,1.064,-0.1159999999999998,0.029160000000000005,0,-1.57,0,Set_Draw
3.6000000000000028,1.064,-0.1159999999999998,0.028999999999999998,0,-1.57,0,Set_Draw
3.6080000000000028,1.064,-0.1159999999999998,0.028840000000000005,0,-1.57,0,Set_Draw
3.6160000000000028,1.064,-0.1159999999999998,0.028679999999999997,0,-1.57,0,Set_Draw
3.6240000000000028,1.064,-0.1159999999999998,0.028520000000000004,0,-1.57,0,Set_Draw
3.632000000000003,1.064,-0.1159999999999998,0.028359999999999996,0,-1.57,0,Set_Draw
3.640000000000003,1.064,-0.1159999999999998,0.028200000000000003,0,-1.57,0,Set_Draw
3.648000000000003,1.064,-0.1159999999999998,0.028039999999999995,0,-1.57,0,Set_Draw
3.656000000000003,1.064,-0.1159999999999998,0.027880000000000002,0,-1.57,0,Set_Draw
3.664000000000003,1.064,-0.1159999999999998,0.02772000000000001,0,-1.57,0,Set_Draw
3.672000000000003,1.064,-0.1159999999999998,0.02756,0,-1.57,0,Set_Draw
3.680000000000003,1.064,-0.1159999999999998,0.027400000000000008,0,-1.57,0,Set_Draw
3.688000000000003,1.064,-0.1159999999999998,0.02724,0,-1.57,0,Set_Draw
3.696000000000003,1.064,-0.1159999999999998,0.027080000000000007,0,-1.57,0,Set_Draw
3.704000000000003,1.064,-0.1159999999999998,0.02692,0,-1.57,0,Set_Draw
3.712000000000003,1.064,-0.1159999999999998,0.026760000000000006,0,-1.57,0,Set_Draw
3.720000000000003,1.064,-0.1159999999999998,0.0266,0,-1.57,0,Set_Draw
3.728000000000003,1.064,-0.1159999999999998,0.026440000000000005,0,-1.57,0,Set_Draw
3.736000000000003,1.064,-0.1159999999999998,0.026279999999999998,0,-1.57,0,Set_Draw
3.744000000000003,1.064,-0.1159999999999998,0.026120000000000004,0,-1.57,0,Set_Draw
3.752000000000003,1.064,-0.1159999999999998,0.025959999999999997,0,-1.57,0,Set_Draw
3.760000000000003,1.064,-0.1159999999999998,0.025800000000000003,0,-1.57,0,Set_Draw
3.768000000000003,1.064,-0.1159999999999998,0.025639999999999996,0,-1.57,0,Set_Draw
3.776000000000003,1.064,-0.1159999999999998,0.025480000000000003,0,-1.57,0,Set_Draw
3.784000000000003,1.064,-0.1159999999999998,0.025319999999999995,0,-1.57,0,Set_Draw
3.792000000000003,1.064,-0.1159999999999998,0.025160000000000002,0,-1.57,0,Set_Draw
3.800000000000003,1.064,-0.1159999999999998,0.024999999999999994,0,-1.57,0,Set_Draw
3.808000000000003,1.064,-0.1159999999999998,0.02484,0,-1.57,0,Set_Draw
3.816000000000003,1.064,-0.1159999999999998,0.024679999999999994,0,-1.57,0,Set_Draw
3.824000000000003,1.064,-0.1159999999999998,0.02452,0,-1.57,0,Set_Draw
3.832000000000003,1.064,-0.1159999999999998,0.024359999999999993,0,-1.57,0,Set_Draw
3.840000000000003,1.064,-0.1159999999999998,0.024200000000000013,0,-1.57,0,Set_Draw
3.848000000000003,1.064,-0.1159999999999998,0.024040000000000006,0,-1.57,0,Set_Draw
3.856000000000003,1.064,-0.1159999999999998,0.023880000000000012,0,-1.57,0,Set_Draw
3.864000000000003,1.064,-0.1159999999999998,0.023720000000000005,0,-1.57,0,Set_Draw
3.872000000000003,1.064,-0.1159999999999998,0.02356000000000001,0,-1.57,0,Set_Draw
3.880000000000003,1.064,-0.1159999999999998,0.023400000000000004,0,-1.57,0,Set_Draw
3.888000000000003,1.064,-0.1159999999999998,0.02324000000000001,0,-1.57,0,Set_Draw
3.896000000000003,1.064,-0.1159999999999998,0.023080000000000003,0,-1.57,0,Set_Draw
3.904000000000003,1.064,-0.1159999999999998,0.02292000000000001,0,-1.57,0,Set_Draw
3.912000000000003,1.064,-0.1159999999999998,0.022760000000000002,0,-1.57,0,Set_Draw
3.920000000000003,1.064,-0.1159999999999998,0.02260000000000001,0,-1.57,0,Set_Draw
3.928000000000003,1.064,-0.1159999999999998,0.02244,0,-1.57,0,Set_Draw
3.936000000000003,1.064,-0.1159999999999998,0.022280000000000008,0,-1.57,0,Set_Draw
3.944000000000003,1.064,-0.1159999999999998,0.02212,0,-1.57,0,Set_Draw
3.952000000000003,1.064,-0.1159999999999998,0.021960000000000007,0,-1.57,0,Set_Draw
3.960000000000003,1.064,-0.1159999999999998,0.0218,0,-1.57,0,Set_Draw
3.968000000000003,1.064,-0.1159999999999998,0.021640000000000006,0,-1.57,0,Set_Draw
3.976000000000003,1.064,-0.1159999999999998,0.02148,0,-1.57,0,Set_Draw
3.984000000000003,1.064,-0.1159999999999998,0.021320000000000006,0,-1.57,0,Set_Draw
3.992000000000003,1.064,-0.1159999999999998,0.021159999999999998,0,-1.57,0,Set_Draw
4.000000000000003,1.064,-0.1159999999999998,0.021000000000000005,0,-1.57,0,Set_Draw
4.008000000000003,1.064,-0.1159999999999998,0.0208464,0,-1.57,0,Set_Draw
4.016000000000003,1.064,-0.1159999999999998,0.020705600000000005,0,-1.57,0,Set_Draw
4.024000000000003,1.064,-0.1159999999999998,0.0205776,0,-1.57,0,Set_Draw
4.032000000000003,1.064,-0.1159999999999998,0.02046239999999999,0,-1.57,0,Set_Draw
4.040000000000003,1.064,-0.1159999999999998,0.020360000000000003,0,-1.57,0,Set_Draw
4.048000000000003,1.064,-0.1159999999999998,0.020270399999999994,0,-1.57,0,Set_Draw
4.056000000000003,1.064,-0.1159999999999998,0.020193600000000006,0,-1.57,0,Set_Draw
4.064000000000003,1.064,-0.1159999999999998,0.020129599999999997,0,-1.57,0,Set_Draw
4.072000000000003,1.064,-0.1159999999999998,0.020078399999999996,0,-1.57,0,Set_Draw
4.080000000000003,1.064,-0.1159999999999998,0.020040000000000002,0,-1.57,0,Set_Draw
4.088000000000003,1.064,-0.1159999999999998,0.0200144,0,-1.57,0,Set_Draw
4.096000000000003,1.064,-0.1159999999999998,0.020001600000000008,0,-1.57,0,Set_Draw
4.104000000000003,1.064,-0.1159999999999998,0.02,0,-1.57,0,Set_Draw
4.112000000000003,1.064,-0.1159999999999998,0.02,0,-1.57,0,Draw_Down
4.120000000000003,1.064,-0.1160063999999998,0.02,0,-1.57,0,Draw_Down
4.128000000000003,1.064,-0.1160255999999998,0.02,0,-1.57,0,Draw_Down
4.136000000000003,1.064,-0.1160575999999998,0.02,0,-1.57,0,Draw_Down
4.144000000000003,1.064,-0.1161023999999998,0.02,0,-1.57,0,Draw_Down
4.152000000000003,1.064,-0.11615999999999979,0.02,0,-1.57,0,Draw_Down
4.160000000000003,1.064,-0.1162303999999998,0.02,0,-1.57,0,Draw_Down
4.168000000000003,1.064,-0.1163135999999998,0.02,0,-1.57,0,Draw_Down
4.176000000000003,1.064,-0.1164095999999998,0.02,0,-1.57,0,Draw_Down
4.184000000000003,1.064,-0.1165183999999998,0.02,0,-1.57,0,Draw_Down
4.192000000000003,1.064,-0.1166399999999998,0.02,0,-1.57,0,Draw_Down
4.200000000000003,1.064,-0.11676633463153206,0.02,0,-1.57,0,Draw_Down
4.208000000000003,1.064,-0.11688041353742895,0.02,0,-1.57,0,Draw_Down
4.216000000000003,1.064,-0.11698169244332582,0.02,0,-1.57,0,Draw_Down
4.224000000000003,1.064,-0.11707017134922271,0.02,0,-1.57,0,Draw_Down
4.232000000000003,1.064,-0.11714585025511959,0.02,0,-1.57,0,Draw_Down
4.240000000000003,1.064,-0.11720872916101646,0.02,0,-1.57,0,Draw_Down
4.248000000000003,1.064,-0.11725880806691334,0.02,0,-1.57,0,Draw_Down
4.256000000000003,1.064,-0.11729608697281023,0.02,0,-1.57,0,Draw_Down
4.264000000000003,1.064,-0.11732056587870711,0.02,0,-1.57,0,Draw_Down
4.272000000000003,1.064,-0.11733224478460398,0.02,0,-1.57,0,Draw_Down
4.280000000000003,1.064,-0.1173333333333332,0.02,0,-1.57,0,Draw_Down
4.288000000000003,1.064,-0.1173333333333332,0.02,0,-1.57,0,Draw_Down
4.296000000000003,1.0640045254833996,-0.1173378588167328,0.02,0,-1.57,0,Draw_Down
4.304000000000003,1.0640181019335984,-0.11735143526693158,0.02,0,-1.57,0,Draw_Down
4.312000000000003,1.0640407293505965,-0.11737406268392955,0.02,0,-1.57,0,Draw_Down
4.320000000000003,1.0640724077343935,-0.11740574106772671,0.02,0,-1.57,0,Draw_Down
4.328000000000003,1.06411313708499,-0.11744647041832305,0.02,0,-1.57,0,Draw_Down
4.336000000000003,1.0641629174023854,-0.11749625073571858,0.02,0,-1.57,0,Draw_Down
4.344000000000003,1.0642217486865801,-0.11755508201991331,0.02,0,-1.57,0,Draw_Down
4.352000000000003,1.064289630937574,-0.11762296427090721,0.02,0,-1.57,0,Draw_Down
4.360000000000003,1.0643665641553672,-0.11769989748870031,0.02,0,-1.57,0,Draw_Down
4.368000000000003,1.0644525483399594,-0.1177858816732926,0.02,0,-1.57,0,Draw_Down
4.376000000000003,1.064547583491351,-0.11788091682468406,0.02,0,-1.57,0,Draw_Down
4.384000000000003,1.0646516696095416,-0.11798500294287473,0.02,0,-1.57,0,Draw_Down
4.392000000000003,1.0647580704116866,-0.11809140374501971,0.02,0,-1.57,0,Draw_Down
4.400000000000003,1.0648555908552477,-0.11818892418858076,0.02,0,-1.57,0,Draw_Down
4.408000000000003,1.0649440603320095,-0.11827739366534265,0.02,0,-1.57,0,Draw_Down
4.416000000000003,1.0650234788419721,-0.11835681217530533,0.02,0,-1.57,0,Draw_Down
4.424000000000003,1.0650938463851356,-0.11842717971846883,0.02,0,-1.57,0,Draw_Down
4.432000000000003,1.0651551629615,-0.11848849629483314,0.02,0,-1.57,0,Draw_Down
4.440000000000003,1.065207428571065,-0.11854076190439826,0.02,0,-1.57,0,Draw_Down
4.448000000000003,1.0652506432138311,-0.1185839765471642,0.02,0,-1.57,0,Draw_Down
4.456000000000003,1.0652848068897978,-0.11861814022313094,0.02,0,-1.57,0,Draw_Down
4.464000000000003,1.0653099195989655,-0.1186432529322985,0.02,0,-1.57,0,Draw_Down
4.472000000000003,1.0653259813413338,-0.11865931467466688,0.02,0,-1.57,0,Draw_Down
4.480000000000003,1.065332992116903,-0.11866632545023606,0.02,0,-1.57,0,Draw_Down
4.488000000000003,1.0653333333333335,-0.1186666666666666,0.02,0,-1.57,0,Draw_Down
4.496000000000003,1.0653333333333335,-0.1186666666666666,0.02,0,-1.57,0,Draw_Down
4.504000000000003,1.0653333333333335,-0.1186730666666666,0.02,0,-1.57,0,Draw_Down
4.512000000000003,1.0653333333333335,-0.1186922666666666,0.02,0,-1.57,0,Draw_Down
4.520000000000003,1.0653333333333335,-0.1187242666666666,0.02,0,-1.57,0,Draw_Down
4.528000000000003,1.0653333333333335,-0.1187690666666666,0.02,0,-1.57,0,Draw_Down
4.536000000000003,1.0653333333333335,-0.1188266666666666,0.02,0,-1.57,0,Draw_Down
4.544000000000003,1.0653333333333335,-0.1188970666666666,0.02,0,-1.57,0,Draw_Down
4.552000000000003,1.0653333333333335,-0.1189802666666666,0.02,0,-1.57,0,Draw_Down
4.560000000000003,1.0653333333333335,-0.1190762666666666,0.02,0,-1.57,0,Draw_Down
4.568000000000003,1.0653333333333335,-0.1191850666666666,0.02,0,-1.57,0,Draw_Down
4.576000000000003,1.0653333333333335,-0.1193066666666666,0.02,0,-1.57,0,Draw_Down
4.584000000000003,1.0653333333333335,-0.11943300129819887,0.02,0,-1.57,0,Draw_Down
4.592000000000003,1.0653333333333335,-0.11954708020409574,0.02,0,-1.57,0,Draw_Down
4.600000000000003,1.0653333333333335,-0.11964835910999262,0.02,0,-1.57,0,Draw_Down
4.608000000000003,1.0653333333333335,-0.1197368380158895,0.02,0,-1.57,0,Draw_Down
4.616000000000003,1.0653333333333335,-0.11981251692178638,0.02,0,-1.57,0,Draw_Down
4.624000000000003,1.0653333333333335,-0.11987539582768326,0.02,0,-1.57,0,Draw_Down
4.632000000000003,1.0653333333333335,-0.11992547473358013,0.02,0,-1.57,0,Draw_Down
4.640000000000003,1.0653333333333335,-0.11996275363947702,0.02,0,-1.57,0,Draw_Down
4.648000000000003,1.0653333333333335,-0.1199872325453739,0.02,0,-1.57,0,Draw_Down
4.656000000000003,1.0653333333333335,-0.11999891145127077,0.02,0,-1.57,0,Draw_Down
4.664000000000003,1.0653333333333335,-0.12,0.02,0,-1.57,0,Draw_Down
4.672000000000003,1.0653333333333335,-0.12,0.02,0,-1.57,0,Draw_Down
4.680000000000003,1.0653333333333335,-0.1200064,0.02,0,-1.57,0,Draw_Down
4.688000000000003,1.0653333333333335,-0.1200256,0.02,0,-1.57,0,Draw_Down
4.696000000000003,1.0653333333333335,-0.1200576,0.02,0,-1.57,0,Draw_Down
4.704000000000003,1.0653333333333335,-0.1201024,0.02,0,-1.57,0,Draw_Down
4.712000000000003,1.0653333333333335,-0.12015999999999999,0.02,0,-1.57,0,Draw_Down
4.720000000000003,1.0653333333333335,-0.1202304,0.02,0,-1.57,0,Draw_Down
4.728000000000003,1.0653333333333335,-0.12031359999999999,0.02,0,-1.57,0,Draw_Down
4.736000000000003,1.0653333333333335,-0.12040959999999999,0.02,0,-1.57,0,Draw_Down
4.744000000000003,1.0653333333333335,-0.1205184,0.02,0,-1.57,0,Draw_Down
4.752000000000003,1.0653333333333335,-0.12064,0.02,0,-1.57,0,Draw_Down
4.760000000000003,1.0653333333333335,-0.12076633463153225,0.02,0,-1.57,0,Draw_Down
4.768000000000003,1.0653333333333335,-0.12088041353742911,0.02,0,-1.57,0,Draw_Down
4.776000000000003,1.0653333333333335,-0.12098169244332596,0.02,0,-1.57,0,Draw_Down
4.784000000000003,1.0653333333333335,-0.12107017134922282,0.02,0,-1.57,0,Draw_Down
4.792000000000003,1.0653333333333335,-0.12114585025511969,0.02,0,-1.57,0,Draw_Down
4.800000000000003,1.0653333333333335,-0.12120872916101655,0.02,0,-1.57,0,Draw_Down
4.808000000000003,1.0653333333333335,-0.1212588080669134,0.02,0,-1.57,0,Draw_Down
4.816000000000003,1.0653333333333335,-0.12129608697281026,0.02,0,-1.57,0,Draw_Down
4.824000000000003,1.0653333333333335,-0.12132056587870713,0.02,0,-1.57,0,Draw_Down
4.832000000000003,1.0653333333333335,-0.12133224478460398,0.02,0,-1.57,0,Draw_Down
4.840000000000003,1.0653333333333335,-0.1213333333333332,0.02,0,-1.57,0,Draw_Down
4.848000000000003,1.0653333333333335,-0.1213333333333332,0.02,0,-1.57,0,Draw_Down
4.856000000000003,1.065337858816733,-0.12133785881673279,0.02,0,-1.57,0,Draw_Down
4.864000000000003,1.0653514352669318,-0.12135143526693157,0.02,0,-1.57,0,Draw_Down
4.872000000000003,1.0653740626839299,-0.12137406268392954,0.02,0,-1.57,0,Draw_Down
4.8800000000000034,1.065405741067727,-0.1214057410677267,0.02,0,-1.57,0,Draw_Down
4.8880000000000035,1.0654464704183233,-0.12144647041832304,0.02,0,-1.57,0,Draw_Down
4.8960000000000035,1.0654962507357189,-0.12149625073571858,0.02,0,-1.57,0,Draw_Down
4.9040000000000035,1.0655550820199136,-0.1215550820199133,0.02,0,-1.57,0,Draw_Down
4.9120000000000035,1.0656229642709074,-0.1216229642709072,0.02,0,-1.57,0,Draw_Down
4.9200000000000035,1.0656998974887006,-0.1216998974887003,0.02,0,-1.57,0,Draw_Down
4.9280000000000035,1.0657858816732928,-0.12178588167329259,0.02,0,-1.57,0,Draw_Down
4.9360000000000035,1.0658809168246843,-0.12188091682468406,0.02,0,-1.57,0,Draw_Down
4.9440000000000035,1.065985002942875,-0.12198500294287472,0.02,0,-1.57,0,Draw_Down
4.9520000000000035,1.06609140374502,-0.1220914037450197,0.02,0,-1.57,0,Draw_Down
4.9600000000000035,1.0661889241885811,-0.12218892418858077,0.02,0,-1.57,0,Draw_Down
4.9680000000000035,1.066277393665343,-0.12227739366534264,0.02,0,-1.57,0,Draw_Down
4.9760000000000035,1.0663568121753055,-0.12235681217530534,0.02,0,-1.57,0,Draw_Down
4.9840000000000035,1.066427179718469,-0.12242717971846882,0.02,0,-1.57,0,Draw_Down
4.9920000000000035,1.0664884962948333,-0.12248849629483315,0.02,0,-1.57,0,Draw_Down
5.0000000000000036,1.0665407619043985,-0.12254076190439826,0.02,0,-1.57,0,Draw_Down
5.008000000000004,1.0665839765471645,-0.1225839765471642,0.02,0,-1.57,0,Draw_Down
5.016000000000004,1.0666181402231312,-0.12261814022313094,0.02,0,-1.57,0,Draw_Down
5.024000000000004,1.0666432529322987,-0.12264325293229851,0.02,0,-1.57,0,Draw_Down
5.032000000000004,1.0666593146746672,-0.12265931467466688,0.02,0,-1.57,0,Draw_Down
5.040000000000004,1.0666663254502364,-0.12266632545023606,0.02,0,-1.57,0,Draw_Down
5.048000000000004,1.0666666666666669,-0.1226666666666666,0.02,0,-1.57,0,Draw_Down
5.056000000000004,1.0666666666666669,-0.1226666666666666,0.02,0,-1.57,0,Draw_Down
5.064000000000004,1.0666666666666669,-0.12267306666666661,0.02,0,-1.57,0,Draw_Down
5.072000000000004,1.0666666666666669,-0.1226922666666666,0.02,0,-1.57,0,Draw_Down
5.080000000000004,1.0666666666666669,-0.12272426666666661,0.02,0,-1.57,0,Draw_Down
5.088000000000004,1.0666666666666669,-0.12276906666666661,0.02,0,-1.57,0,Draw_Down
5.096000000000004,1.0666666666666669,-0.1228266666666666,0.02,0,-1.57,0,Draw_Down
5.104000000000004,1.0666666666666669,-0.12289706666666661,0.02,0,-1.57,0,Draw_Down
5.112000000000004,1.0666666666666669,-0.1229802666666666,0.02,0,-1.57,0,Draw_Down
5.120000000000004,1.0666666666666669,-0.1230762666666666,0.02,0,-1.57,0,Draw_Down
5.128000000000004,1.0666666666666669,-0.1231850666666666,0.02,0,-1.57,0,Draw_Down
5.136000000000004,1.0666666666666669,-0.1233066666666666,0.02,0,-1.57,0,Draw_Down
5.144000000000004,1.0666666666666669,-0.12343300129819887,0.02,0,-1.57,0,Draw_Down
5.152000000000004,1.0666666666666669,-0.12354708020409574,0.02,0,-1.57,0,Draw_Down
5.160000000000004,1.0666666666666669,-0.12364835910999263,0.02,0,-1.57,0,Draw_Down
5.168000000000004,1.0666666666666669,-0.1237368380158895,0.02,0,-1.57,0,Draw_Down
5.176000000000004,1.0666666666666669,-0.12381251692178638,0.02,0,-1.57,0,Draw_Down
5.184000000000004,1.0666666666666669,-0.12387539582768327,0.02,0,-1.57,0,Draw_Down
5.192000000000004,1.0666666666666669,-0.12392547473358013,0.02,0,-1.57,0,Draw_Down
5.200000000000004,1.0666666666666669,-0.12396275363947702,0.02,0,-1.57,0,Draw_Down
5.208000000000004,1.0666666666666669,-0.1239872325453739,0.02,0,-1.57,0,Draw_Down
5.216000000000004,1.0666666666666669,-0.12399891145127077,0.02,0,-1.57,0,Draw_Down
5.224000000000004,1.0666666666666669,-0.124,0.02,0,-1.57,0,Draw_Down
5.232000000000004,1.0666666666666669,-0.124,0.02,0,-1.57,0,Draw_Down
5.240000000000004,1.0666666666666669,-0.1240064,0.02,0,-1.57,0,Draw_Down
5.248000000000004,1.0666666666666669,-0.1240256,0.02,0,-1.57,0,Draw_Down
5.256000000000004,1.0666666666666669,-0.1240576,0.02,0,-1.57,0,Draw_Down
5.264000000000004,1.0666666666666669,-0.1241024,0.02,0,-1.57,0,Draw_Down
5.272000000000004,1.0666666666666669,-0.12415999999999999,0.02,0,-1.57,0,Draw_Down
5.280000000000004,1.0666666666666669,-0.1242304,0.02,0,-1.57,0,Draw_Down
5.288000000000004,1.0666666666666669,-0.1243136,0.02,0,-1.57,0,Draw_Down
5.296000000000004,1.0666666666666669,-0.1244096,0.02,0,-1.57,0,Draw_Down
5.304000000000004,1.0666666666666669,-0.1245184,0.02,0,-1.57,0,Draw_Down
5.312000000000004,1.0666666666666669,-0.12464,0.02,0,-1.57,0,Draw_Down
5.320000000000004,1.0666666666666669,-0.12476633463153225,0.02,0,-1.57,0,Draw_Down
5.328000000000004,1.0666666666666669,-0.12488041353742911,0.02,0,-1.57,0,Draw_Down
5.336000000000004,1.0666666666666669,-0.12498169244332598,0.02,0,-1.57,0,Draw_Down
5.344000000000004,1.0666666666666669,-0.12507017134922283,0.02,0,-1.57,0,Draw_Down
5.352000000000004,1.0666666666666669,-0.1251458502551197,0.02,0,-1.57,0,Draw_Down
5.360000000000004,1.0666666666666669,-0.12520872916101655,0.02,0,-1.57,0,Draw_Down
5.368000000000004,1.0666666666666669,-0.12525880806691342,0.02,0,-1.57,0,Draw_Down
5.376000000000004,1.0666666666666669,-0.12529608697281028,0.02,0,-1.57,0,Draw_Down
5.384000000000004,1.0666666666666669,-0.12532056587870713,0.02,0,-1.57,0,Draw_Down
5.392000000000004,1.0666666666666669,-0.125332244784604,0.02,0,-1.57,0,Draw_Down
5.400000000000004,1.0666666666666669,-0.1253333333333332,0.02,0,-1.57,0,Draw_Down
5.408000000000004,1.0666666666666669,-0.1253333333333332,0.02,0,-1.57,0,Draw_Down
5.416000000000004,1.0666666666666669,-0.1253397333333332,0.02,0,-1.57,0,Draw_Down
5.424000000000004,1.0666666666666669,-0.1253589333333332,0.02,0,-1.57,0,Draw_Down
5.432000000000004,1.0666666666666669,-0.1253909333333332,0.02,0,-1.57,0,Draw_Down
5.440000000000004,1.0666666666666669,-0.12543573333333322,0.02,0,-1.57,0,Draw_Down
5.448000000000004,1.0666666666666669,-0.1254933333333332,0.02,0,-1.57,0,Draw_Down
5.456000000000004,1.0666666666666669,-0.1255637333333332,0.02,0,-1.57,0,Draw_Down
5.464000000000004,1.0666666666666669,-0.1256469333333332,0.02,0,-1.57,0,Draw_Down
5.472000000000004,1.0666666666666669,-0.12574293333333322,0.02,0,-1.57,0,Draw_Down
5.480000000000004,1.0666666666666669,-0.12585173333333322,0.02,0,-1.57,0,Draw_Down
5.488000000000004,1.0666666666666669,-0.12597333333333322,0.02,0,-1.57,0,Draw_Down
5.496000000000004,1.0666666666666669,-0.1260996679648655,0.02,0,-1.57,0,Draw_Down
5.504000000000004,1.0666666666666669,-0.12621374687076237,0.02,0,-1.57,0,Draw_Down
5.512000000000004,1.0666666666666669,-0.12631502577665923,0.02,0,-1.57,0,Draw_Down
5.520000000000004,1.0666666666666669,-0.12640350468255612,0.02,0,-1.57,0,Draw_Down
5.528000000000004,1.0666666666666669,-0.12647918358845298,0.02,0,-1.57,0,Draw_Down
5.536000000000004,1.0666666666666669,-0.12654206249434988,0.02,0,-1.57,0,Draw_Down
5.544000000000004,1.0666666666666669,-0.12659214140024674,0.02,0,-1.57,0,Draw_Down
5.552000000000004,1.0666666666666669,-0.12662942030614363,0.02,0,-1.57,0,Draw_Down
5.560000000000004,1.0666666666666669,-0.12665389921204048,0.02,0,-1.57,0,Draw_Down
5.568000000000004,1.0666666666666669,-0.12666557811793738,0.02,0,-1.57,0,Draw_Down
5.576000000000004,1.0666666666666669,-0.1266666666666666,0.02,0,-1.57,0,Draw_Down
5.584000000000004,1.0666666666666669,-0.1266666666666666,0.02,0,-1.57,0,Draw_Down
5.592000000000004,1.0666666666666669,-0.12667306666666658,0.02,0,-1.57,0,Draw_Down
5.600000000000004,1.0666666666666669,-0.12669226666666658,0.02,0,-1.57,0,Draw_Down
5.608000000000004,1.0666666666666669,-0.12672426666666659,0.02,0,-1.57,0,Draw_Down
5.616000000000004,1.0666666666666669,-0.1267690666666666,0.02,0,-1.57,0,Draw_Down
5.624000000000004,1.0666666666666669,-0.1268266666666666,0.02,0,-1.57,0,Draw_Down
5.632000000000004,1.0666666666666669,-0.12689706666666659,0.02,0,-1.57,0,Draw_Down
5.640000000000004,1.0666666666666669,-0.1269802666666666,0.02,0,-1.57,0,Draw_Down
5.648000000000004,1.0666666666666669,-0.1270762666666666,0.02,0,-1.57,0,Draw_Down
5.656000000000004,1.0666666666666669,-0.1271850666666666,0.02,0,-1.57,0,Draw_Down
5.664000000000004,1.0666666666666669,-0.1273066666666666,0.02,0,-1.57,0,Draw_Down
5.672000000000004,1.0666666666666669,-0.12743300129819887,0.02,0,-1.57,0,Draw_Down
5.680000000000004,1.0666666666666669,-0.12754708020409575,0.02,0,-1.57,0,Draw_Down
5.688000000000004,1.0666666666666669,-0.12764835910999262,0.02,0,-1.57,0,Draw_Down
5.696000000000004,1.0666666666666669,-0.1277368380158895,0.02,0,-1.57,0,Draw_Down
5.704000000000004,1.0666666666666669,-0.12781251692178638,0.02,0,-1.57,0,Draw_Down
5.712000000000004,1.0666666666666669,-0.12787539582768326,0.02,0,-1.57,0,Draw_Down
5.720000000000004,1.0666666666666669,-0.12792547473358015,0.02,0,-1.57,0,Draw_Down
5.728000000000004,1.0666666666666669,-0.127962753639477,0.02,0,-1.57,0,Draw_Down
5.736000000000004,1.0666666666666669,-0.1279872325453739,0.02,0,-1.57,0,Draw_Down
5.744000000000004,1.0666666666666669,-0.1279989114512708,0.02,0,-1.57,0,Draw_Down
5.752000000000004,1.0666666666666669,-0.128,0.02,0,-1.57,0,Draw_Down
5.760000000000004,1.0666666666666669,-0.128,0.02,0,-1.57,0,Draw_Down
5.768000000000004,1.0666666666666669,-0.1280064,0.02,0,-1.57,0,Draw_Down
5.776000000000004,1.0666666666666669,-0.1280256,0.02,0,-1.57,0,Draw_Down
5.784000000000004,1.0666666666666669,-0.1280576,0.02,0,-1.57,0,Draw_Down
5.792000000000004,1.0666666666666669,-0.1281024,0.02,0,-1.57,0,Draw_Down
5.800000000000004,1.0666666666666669,-0.12816,0.02,0,-1.57,0,Draw_Down
5.808000000000004,1.0666666666666669,-0.1282304,0.02,0,-1.57,0,Draw_Down
5.816000000000004,1.0666666666666669,-0.1283136,0.02,0,-1.57,0,Draw_Down
5.824000000000004,1.0666666666666669,-0.1284096,0.02,0,-1.57,0,Draw_Down
5.832000000000004,1.0666666666666669,-0.1285184,0.02,0,-1.57,0,Draw_Down
5.840000000000004,1.0666666666666669,-0.12864,0.02,0,-1.57,0,Draw_Down
5.848000000000004,1.0666666666666669,-0.12876633463153225,0.02,0,-1.57,0,Draw_Down
5.856000000000004,1.0666666666666669,-0.1288804135374291,0.02,0,-1.57,0,Draw_Down
5.864000000000004,1.0666666666666669,-0.12898169244332597,0.02,0,-1.57,0,Draw_Down
5.872000000000004,1.0666666666666669,-0.12907017134922283,0.02,0,-1.57,0,Draw_Down
5.880000000000004,1.0666666666666669,-0.12914585025511968,0.02,0,-1.57,0,Draw_Down
5.888000000000004,1.0666666666666669,-0.12920872916101656,0.02,0,-1.57,0,Draw_Down
5.896000000000004,1.0666666666666669,-0.1292588080669134,0.02,0,-1.57,0,Draw_Down
5.904000000000004,1.0666666666666669,-0.12929608697281025,0.02,0,-1.57,0,Draw_Down
5.912000000000004,1.0666666666666669,-0.1293205658787071,0.02,0,-1.57,0,Draw_Down
5.920000000000004,1.0666666666666669,-0.12933224478460398,0.02,0,-1.57,0,Draw_Down
5.928000000000004,1.0666666666666669,-0.1293333333333332,0.02,0,-1.57,0,Draw_Down
5.936000000000004,1.0666666666666669,-0.1293333333333332,0.02,0,-1.57,0,Draw_Down
5.944000000000004,1.0666666666666669,-0.12933973333333318,0.02,0,-1.57,0,Draw_Down
5.952000000000004,1.0666666666666669,-0.12935893333333318,0.02,0,-1.57,0,Draw_Down
5.960000000000004,1.0666666666666669,-0.12939093333333318,0.02,0,-1.57,0,Draw_Down
5.968000000000004,1.0666666666666669,-0.1294357333333332,0.02,0,-1.57,0,Draw_Down
5.976000000000004,1.0666666666666669,-0.12949333333333318,0.02,0,-1.57,0,Draw_Down
5.984000000000004,1.0666666666666669,-0.12956373333333318,0.02,0,-1.57,0,Draw_Down
5.992000000000004,1.0666666666666669,-0.1296469333333332,0.02,0,-1.57,0,Draw_Down
6.000000000000004,1.0666666666666669,-0.1297429333333332,0.02,0,-1.57,0,Draw_Down
6.0080000000000044,1.0666666666666669,-0.1298517333333332,0.02,0,-1.57,0,Draw_Down
6.0160000000000045,1.0666666666666669,-0.1299733333333332,0.02,0,-1.57,0,Draw_Down
6.0240000000000045,1.0666666666666669,-0.13009966796486547,0.02,0,-1.57,0,Draw_Down
6.0320000000000045,1.0666666666666669,-0.13021374687076234,0.02,0,-1.57,0,Draw_Down
6.0400000000000045,1.0666666666666669,-0.1303150257766592,0.02,0,-1.57,0,Draw_Down
6.0480000000000045,1.0666666666666669,-0.1304035046825561,0.02,0,-1.57,0,Draw_Down
6.0560000000000045,1.0666666666666669,-0.13047918358845298,0.02,0,-1.57,0,Draw_Down
6.0640000000000045,1.0666666666666669,-0.13054206249434985,0.02,0,-1.57,0,Draw_Down
6.0720000000000045,1.0666666666666669,-0.13059214140024675,0.02,0,-1.57,0,Draw_Down
6.0800000000000045,1.0666666666666669,-0.1306294203061436,0.02,0,-1.57,0,Draw_Down
6.0880000000000045,1.0666666666666669,-0.1306538992120405,0.02,0,-1.57,0,Draw_Down
6.0960000000000045,1.0666666666666669,-0.1306655781179374,0.02,0,-1.57,0,Draw_Down
6.1040000000000045,1.0666666666666669,-0.1306666666666666,0.02,0,-1.57,0,Draw_Down
6.1120000000000045,1.0666666666666669,-0.1306666666666666,0.02,0,-1.57,0,Draw_Down
6.1200000000000045,1.0666666666666669,-0.1306730666666666,0.02,0,-1.57,0,Draw_Down
6.1280000000000046,1.0666666666666669,-0.13069226666666658,0.02,0,-1.57,0,Draw_Down
6.136000000000005,1.0666666666666669,-0.1307242666666666,0.02,0,-1.57,0,Draw_Down
6.144000000000005,1.0666666666666669,-0.1307690666666666,0.02,0,-1.57,0,Draw_Down
6.152000000000005,1.0666666666666669,-0.1308266666666666,0.02,0,-1.57,0,Draw_Down
6.160000000000005,1.0666666666666669,-0.1308970666666666,0.02,0,-1.57,0,Draw_Down
6.168000000000005,1.0666666666666669,-0.1309802666666666,0.02,0,-1.57,0,Draw_Down
6.176000000000005,1.0666666666666669,-0.1310762666666666,0.02,0,-1.57,0,Draw_Down
6.184000000000005,1.0666666666666669,-0.1311850666666666,0.02,0,-1.57,0,Draw_Down
6.192000000000005,1.0666666666666669,-0.1313066666666666,0.02,0,-1.57,0,Draw_Down
6.200000000000005,1.0666666666666669,-0.13143300129819888,0.02,0,-1.57,0,Draw_Down
6.208000000000005,1.0666666666666669,-0.13154708020409575,0.02,0,-1.57,0,Draw_Down
6.216000000000005,1.0666666666666669,-0.13164835910999262,0.02,0,-1.57,0,Draw_Down
6.224000000000005,1.0666666666666669,-0.1317368380158895,0.02,0,-1.57,0,Draw_Down
6.232000000000005,1.0666666666666669,-0.1318125169217864,0.02,0,-1.57,0,Draw_Down
6.240000000000005,1.0666666666666669,-0.13187539582768326,0.02,0,-1.57,0,Draw_Down
6.248000000000005,1.0666666666666669,-0.13192547473358016,0.02,0,-1.57,0,Draw_Down
6.256000000000005,1.0666666666666669,-0.13196275363947702,0.02,0,-1.57,0,Draw_Down
6.264000000000005,1.0666666666666669,-0.1319872325453739,0.02,0,-1.57,0,Draw_Down
6.272000000000005,1.0666666666666669,-0.1319989114512708,0.02,0,-1.57,0,Draw_Down
6.280000000000005,1.0666666666666669,-0.132,0.02,0,-1.57,0,Draw_Down
6.288000000000005,1.0666666666666669,-0.132,0.02,0,-1.57,0,Draw_Down
6.296000000000005,1.0666666666666669,-0.1320064,0.02,0,-1.57,0,Draw_Down
6.304000000000005,1.0666666666666669,-0.1320256,0.02,0,-1.57,0,Draw_Down
6.312000000000005,1.0666666666666669,-0.1320576,0.02,0,-1.57,0,Draw_Down
6.320000000000005,1.0666666666666669,-0.1321024,0.02,0,-1.57,0,Draw_Down
6.328000000000005,1.0666666666666669,-0.13216,0.02,0,-1.57,0,Draw_Down
6.336000000000005,1.0666666666666669,-0.1322304,0.02,0,-1.57,0,Draw_Down
6.344000000000005,1.0666666666666669,-0.1323136,0.02,0,-1.57,0,Draw_Down
6.352000000000005,1.0666666666666669,-0.13240960000000002,0.02,0,-1.57,0,Draw_Down
6.360000000000005,1.0666666666666669,-0.1325184,0.02,0,-1.57,0,Draw_Down
6.368000000000005,1.0666666666666669,-0.13264,0.02,0,-1.57,0,Draw_Down
6.376000000000005,1.0666666666666669,-0.13276633463153226,0.02,0,-1.57,0,Draw_Down
6.384000000000005,1.0666666666666669,-0.1328804135374291,0.02,0,-1.57,0,Draw_Down
6.392000000000005,1.0666666666666669,-0.13298169244332597,0.02,0,-1.57,0,Draw_Down
6.400000000000005,1.0666666666666669,-0.13307017134922283,0.02,0,-1.57,0,Draw_Down
6.408000000000005,1.0666666666666669,-0.13314585025511969,0.02,0,-1.57,0,Draw_Down
6.416000000000005,1.0666666666666669,-0.13320872916101656,0.02,0,-1.57,0,Draw_Down
6.424000000000005,1.0666666666666669,-0.1332588080669134,0.02,0,-1.57,0,Draw_Down
6.432000000000005,1.0666666666666669,-0.13329608697281026,0.02,0,-1.57,0,Draw_Down
6.440000000000005,1.0666666666666669,-0.1333205658787071,0.02,0,-1.57,0,Draw_Down
6.448000000000005,1.0666666666666669,-0.13333224478460398,0.02,0,-1.57,0,Draw_Down
6.456000000000005,1.0666666666666669,-0.1333333333333332,0.02,0,-1.57,0,Draw_Down
6.464000000000005,1.0666666666666669,-0.1333333333333332,0.02,0,-1.57,0,Draw_Down
6.472000000000005,1.0666666666666669,-0.13333973333333318,0.02,0,-1.57,0,Draw_Down
6.480000000000005,1.0666666666666669,-0.13335893333333318,0.02,0,-1.57,0,Draw_Down
6.488000000000005,1.0666666666666669,-0.13339093333333318,0.02,0,-1.57,0,Draw_Down
6.496000000000005,1.0666666666666669,-0.1334357333333332,0.02,0,-1.57,0,Draw_Down
6.504000000000005,1.0666666666666669,-0.1334933333333332,0.02,0,-1.57,0,Draw_Down
6.512000000000005,1.0666666666666669,-0.13356373333333318,0.02,0,-1.57,0,Draw_Down
6.520000000000005,1.0666666666666669,-0.1336469333333332,0.02,0,-1.57,0,Draw_Down
6.528000000000005,1.0666666666666669,-0.1337429333333332,0.02,0,-1.57,0,Draw_Down
6.536000000000005,1.0666666666666669,-0.1338517333333332,0.02,0,-1.57,0,Draw_Down
6.544000000000005,1.0666666666666669,-0.1339733333333332,0.02,0,-1.57,0,Draw_Down
6.552000000000005,1.0666666666666669,-0.13409966796486547,0.02,0,-1.57,0,Draw_Down
6.560000000000005,1.0666666666666669,-0.13421374687076235,0.02,0,-1.57,0,Draw_Down
6.568000000000005,1.0666666666666669,-0.1343150257766592,0.02,0,-1.57,0,Draw_Down
6.576000000000005,1.0666666666666669,-0.1344035046825561,0.02,0,-1.57,0,Draw_Down
6.584000000000005,1.0666666666666669,-0.13447918358845298,0.02,0,-1.57,0,Draw_Down
6.592000000000005,1.0666666666666669,-0.13454206249434986,0.02,0,-1.57,0,Draw_Down
6.600000000000005,1.0666666666666669,-0.13459214140024675,0.02,0,-1.57,0,Draw_Down
6.608000000000005,1.0666666666666669,-0.1346294203061436,0.02,0,-1.57,0,Draw_Down
6.616000000000005,1.0666666666666669,-0.1346538992120405,0.02,0,-1.57,0,Draw_Down
6.624000000000005,1.0666666666666669,-0.1346655781179374,0.02,0,-1.57,0,Draw_Down
6.632000000000005,1.0666666666666669,-0.1346666666666666,0.02,0,-1.57,0,Draw_Down
6.640000000000005,1.0666666666666669,-0.1346666666666666,0.02,0,-1.57,0,Move_Lift
6.648000000000005,1.0666666666666669,-0.1346666666666666,0.020032,0,-1.57,0,Move_Lift
6.656000000000005,1.0666666666666669,-0.1346666666666666,0.020128,0,-1.57,0,Move_Lift
6.664000000000005,1.0666666666666669,-0.1346666666666666,0.020288,0,-1.57,0,Move_Lift
6.672000000000005,1.0666666666666669,-0.1346666666666666,0.020512,0,-1.57,0,Move_Lift
6.680000000000005,1.0666666666666669,-0.1346666666666666,0.0208,0,-1.57,0,Move_Lift
6.688000000000005,1.0666666666666669,-0.1346666666666666,0.021152,0,-1.57,0,Move_Lift
6.696000000000005,1.0666666666666669,-0.1346666666666666,0.021568,0,-1.57,0,Move_Lift
6.704000000000005,1.0666666666666669,-0.1346666666666666,0.022048,0,-1.57,0,Move_Lift
6.712000000000005,1.0666666666666669,-0.1346666666666666,0.022592,0,-1.57,0,Move_Lift
6.720000000000005,1.0666666666666669,-0.1346666666666666,0.023200000000000002,0,-1.57,0,Move_Lift
6.728000000000005,1.0666666666666669,-0.1346666666666666,0.023872,0,-1.57,0,Move_Lift
6.736000000000005,1.0666666666666669,-0.1346666666666666,0.024608,0,-1.57,0,Move_Lift
6.744000000000005,1.0666666666666669,-0.1346666666666666,0.025408,0,-1.57,0,Move_Lift
6.752000000000005,1.0666666666666669,-0.1346666666666666,0.026272,0,-1.57,0,Move_Lift
6.760000000000005,1.0666666666666669,-0.1346666666666666,0.027200000000000002,0,-1.57,0,Move_Lift
6.768000000000005,1.0666666666666669,-0.1346666666666666,0.028192000000000002,0,-1.57,0,Move_Lift
6.776000000000005,1.0666666666666669,-0.1346666666666666,0.029248000000000003,0,-1.57,0,Move_Lift
6.784000000000005,1.0666666666666669,-0.1346666666666666,0.030368000000000003,0,-1.57,0,Move_Lift
6.792000000000005,1.0666666666666669,-0.1346666666666666,0.031552,0,-1.57,0,Move_Lift
6.800000000000005,1.0666666666666669,-0.1346666666666666,0.0328,0,-1.57,0,Move_Lift
6.808000000000005,1.0666666666666669,-0.1346666666666666,0.034112,0,-1.57,0,Move_Lift
6.816000000000005,1.0666666666666669,-0.1346666666666666,0.035488,0,-1.57,0,Move_Lift
6.824000000000005,1.0666666666666669,-0.1346666666666666,0.036928,0,-1.57,0,Move_Lift
6.832000000000005,1.0666666666666669,-0.1346666666666666,0.038432,0,-1.57,0,Move_Lift
6.840000000000005,1.0666666666666669,-0.1346666666666666,0.04000000000000001,0,-1.57,0,Move_Lift
6.848000000000005,1.0666666666666669,-0.1346666666666666,0.041632,0,-1.57,0,Move_Lift
6.856000000000005,1.0666666666666669,-0.1346666666666666,0.043328,0,-1.57,0,Move_Lift
6.864000000000005,1.0666666666666669,-0.1346666666666666,0.045088,0,-1.57,0,Move_Lift
6.872000000000005,1.0666666666666669,-0.1346666666666666,0.046912,0,-1.57,0,Move_Lift
6.880000000000005,1.0666666666666669,-0.1346666666666666,0.048799999999999996,0,-1.57,0,Move_Lift
6.888000000000005,1.0666666666666669,-0.1346666666666666,0.050752,0,-1.57,0,Move_Lift
6.896000000000005,1.0666666666666669,-0.1346666666666666,0.052767999999999995,0,-1.57,0,Move_Lift
6.904000000000005,1.0666666666666669,-0.1346666666666666,0.05484800000000001,0,-1.57,0,Move_Lift
6.912000000000005,1.0666666666666669,-0.1346666666666666,0.056992,0,-1.57,0,Move_Lift
6.920000000000005,1.0666666666666669,-0.1346666666666666,0.0592,0,-1.57,0,Move_Lift
6.928000000000005,1.0666666666666669,-0.1346666666666666,0.06144540238538056,0,-1.57,0,Move_Lift
6.936000000000005,1.0666666666666669,-0.1346666666666666,0.06363488578497445,0,-1.57,0,Move_Lift
6.944000000000005,1.0666666666666669,-0.1346666666666666,0.06576036918456836,0,-1.57,0,Move_Lift
6.952000000000005,1.0666666666666669,-0.1346666666666666,0.06782185258416226,0,-1.57,0,Move_Lift
6.960000000000005,1.0666666666666669,-0.1346666666666666,0.06981933598375617,0,-1.57,0,Move_Lift
6.968000000000005,1.0666666666666669,-0.1346666666666666,0.07175281938335008,0,-1.57,0,Move_Lift
6.976000000000005,1.0666666666666669,-0.1346666666666666,0.07362230278294399,0,-1.57,0,Move_Lift
6.984000000000005,1.0666666666666669,-0.1346666666666666,0.07542778618253788,0,-1.57,0,Move_Lift
6.992000000000005,1.0666666666666669,-0.1346666666666666,0.07716926958213179,0,-1.57,0,Move_Lift
7.000000000000005,1.0666666666666669,-0.1346666666666666,0.07884675298172569,0,-1.57,0,Move_Lift
7.008000000000005,1.0666666666666669,-0.1346666666666666,0.08046023638131959,0,-1.57,0,Move_Lift
7.016000000000005,1.0666666666666669,-0.1346666666666666,0.0820097197809135,0,-1.57,0,Move_Lift
7.024000000000005,1.0666666666666669,-0.1346666666666666,0.0834952031805074,0,-1.57,0,Move_Lift
7.032000000000005,1.0666666666666669,-0.1346666666666666,0.0849166865801013,0,-1.57,0,Move_Lift
7.040000000000005,1.0666666666666669,-0.1346666666666666,0.08627416997969521,0,-1.57,0,Move_Lift
7.048000000000005,1.0666666666666669,-0.1346666666666666,0.08756765337928912,0,-1.57,0,Move_Lift
7.056000000000005,1.0666666666666669,-0.1346666666666666,0.08879713677888303,0,-1.57,0,Move_Lift
7.064000000000005,1.0666666666666669,-0.1346666666666666,0.08996262017847692,0,-1.57,0,Move_Lift
7.072000000000005,1.0666666666666669,-0.1346666666666666,0.09106410357807083,0,-1.57,0,Move_Lift
7.080000000000005,1.0666666666666669,-0.1346666666666666,0.09210158697766474,0,-1.57,0,Move_Lift
7.088000000000005,1.0666666666666669,-0.1346666666666666,0.09307507037725864,0,-1.57,0,Move_Lift
7.096000000000005,1.0666666666666669,-0.1346666666666666,0.09398455377685254,0,-1.57,0,Move_Lift
7.104000000000005,1.0666666666666669,-0.1346666666666666,0.09483003717644645,0,-1.57,0,Move_Lift
7.112000000000005,1.0666666666666669,-0.1346666666666666,0.09561152057604036,0,-1.57,0,Move_Lift
7.120000000000005,1.0666666666666669,-0.1346666666666666,0.09632900397563425,0,-1.57,0,Move_Lift
7.128000000000005,1.0666666666666669,-0.1346666666666666,0.09698248737522816,0,-1.57,0,Move_Lift
7.1360000000000054,1.0666666666666669,-0.1346666666666666,0.09757197077482206,0,-1.57,0,Move_Lift
7.1440000000000055,1.0666666666666669,-0.1346666666666666,0.09809745417441597,0,-1.57,0,Move_Lift
7.1520000000000055,1.0666666666666669,-0.1346666666666666,0.09855893757400987,0,-1.57,0,Move_Lift
7.1600000000000055,1.0666666666666669,-0.1346666666666666,0.09895642097360377,0,-1.57,0,Move_Lift
7.1680000000000055,1.0666666666666669,-0.1346666666666666,0.09928990437319768,0,-1.57,0,Move_Lift
7.1760000000000055,1.0666666666666669,-0.1346666666666666,0.09955938777279158,0,-1.57,0,Move_Lift
7.1840000000000055,1.0666666666666669,-0.1346666666666666,0.09976487117238549,0,-1.57,0,Move_Lift
7.1920000000000055,1.0666666666666669,-0.1346666666666666,0.0999063545719794,0,-1.57,0,Move_Lift
7.2000000000000055,1.0666666666666669,-0.1346666666666666,0.0999838379715733,0,-1.57,0,Move_Lift
7.2080000000000055,1.0666666666666669,-0.1346666666666666,0.1,0,-1.57,0,Move_Lift
7.2160000000000055,1.0666666666666669,-0.1346666666666666,0.1,0,-1.57,0,Move_Lift
7.2240000000000055,1.0666410666666668,-0.1346474666666666,0.1,0,-1.57,0,Move_Lift
7.2320000000000055,1.0665642666666668,-0.1345898666666666,0.1,0,-1.57,0,Move_Lift
7.2400000000000055,1.066436266666667,-0.1344938666666666,0.1,0,-1.57,0,Move_Lift
7.2480000000000055,1.0662570666666669,-0.1343594666666666,0.1,0,-1.57,0,Move_Lift
7.256000000000006,1.066026666666667,-0.1341866666666666,0.1,0,-1.57,0,Move_Lift
7.264000000000006,1.0657450666666668,-0.1339754666666666,0.1,0,-1.57,0,Move_Lift
7.272000000000006,1.0654122666666668,-0.1337258666666666,0.1,0,-1.57,0,Move_Lift
7.280000000000006,1.0650282666666668,-0.1334378666666666,0.1,0,-1.57,0,Move_Lift
7.288000000000006,1.064593066666667,-0.1331114666666666,0.1,0,-1.57,0,Move_Lift
7.296000000000006,1.064106666666667,-0.1327466666666666,0.1,0,-1.57,0,Move_Lift
7.304000000000006,1.0635690666666668,-0.1323434666666666,0.1,0,-1.57,0,Move_Lift
7.312000000000006,1.0629802666666668,-0.13190186666666662,0.1,0,-1.57,0,Move_Lift
7.320000000000006,1.0623402666666668,-0.1314218666666666,0.1,0,-1.57,0,Move_Lift
7.328000000000006,1.061649066666667,-0.1309034666666666,0.1,0,-1.57,0,Move_Lift
7.336000000000006,1.0609066666666669,-0.1303466666666666,0.1,0,-1.57,0,Move_Lift
7.344000000000006,1.060113066666667,-0.12975146666666662,0.1,0,-1.57,0,Move_Lift
7.352000000000006,1.0592682666666668,-0.12911786666666664,0.1,0,-1.57,0,Move_Lift
7.360000000000006,1.0583722666666668,-0.12844586666666663,0.1,0,-1.57,0,Move_Lift
7.368000000000006,1.057425066666667,-0.12773546666666663,0.1,0,-1.57,0,Move_Lift
7.376000000000006,1.0564266666666668,-0.12698666666666664,0.1,0,-1.57,0,Move_Lift
7.384000000000006,1.0553770666666669,-0.12619946666666662,0.1,0,-1.57,0,Move_Lift
7.392000000000006,1.0542762666666667,-0.12537386666666664,0.1,0,-1.57,0,Move_Lift
7.400000000000006,1.0531258930234932,-0.12451108643428642,0.1,0,-1.57,0,Move_Lift
7.408000000000006,1.0519921434448045,-0.12366077425026988,0.1,0,-1.57,0,Move_Lift
7.416000000000006,1.0509095938661157,-0.12284886206625335,0.1,0,-1.57,0,Move_Lift
7.424000000000006,1.049878244287427,-0.12207534988223681,0.1,0,-1.57,0,Move_Lift
7.432000000000006,1.0488980947087383,-0.12134023769822029,0.1,0,-1.57,0,Move_Lift
7.440000000000006,1.0479691451300497,-0.12064352551420375,0.1,0,-1.57,0,Move_Lift
7.448000000000006,1.047091395551361,-0.11998521333018722,0.1,0,-1.57,0,Move_Lift
7.456000000000006,1.0462648459726722,-0.1193653011461707,0.1,0,-1.57,0,Move_Lift
7.464000000000006,1.0454894963939836,-0.11878378896215416,0.1,0,-1.57,0,Move_Lift
7.472000000000006,1.0447653468152949,-0.11824067677813763,0.1,0,-1.57,0,Move_Lift
7.480000000000006,1.044092397236606,-0.11773596459412108,0.1,0,-1.57,0,Move_Lift
7.488000000000006,1.0434706476579174,-0.11726965241010456,0.1,0,-1.57,0,Move_Lift
7.496000000000006,1.0429000980792287,-0.11684174022608802,0.1,0,-1.57,0,Move_Lift
7.504000000000006,1.0423807485005399,-0.11645222804207149,0.1,0,-1.57,0,Move_Lift
7.512000000000006,1.0419125989218512,-0.11610111585805495,0.1,0,-1.57,0,Move_Lift
7.520000000000006,1.0414956493431624,-0.11578840367403842,0.1,0,-1.57,0,Move_Lift
7.528000000000006,1.0411298997644738,-0.11551409149002188,0.1,0,-1.57,0,Move_Lift
7.536000000000006,1.040815350185785,-0.11527817930600535,0.1,0,-1.57,0,Move_Lift
7.544000000000006,1.0405520006070963,-0.11508066712198882,0.1,0,-1.57,0,Move_Lift
7.552000000000006,1.0403398510284076,-0.11492155493797229,0.1,0,-1.57,0,Move_Lift
7.560000000000006,1.040178901449719,-0.11480084275395575,0.1,0,-1.57,0,Move_Lift
7.568000000000006,1.04006915187103,-0.11471853056993922,0.1,0,-1.57,0,Move_Lift
7.576000000000006,1.0400106022923414,-0.11467461838592267,0.1,0,-1.57,0,Move_Lift
7.584000000000006,1.04,-0.1146666666666666,0.1,0,-1.57,0,Move_Lift
7.592000000000006,1.04,-0.1146666666666666,0.1,0,-1.57,0,Set_Draw
7.600000000000006,1.04,-0.1146666666666666,0.0999936,0,-1.57,0,Set_Draw
7.608000000000006,1.04,-0.1146666666666666,0.0999744,0,-1.57,0,Set_Draw
7.616000000000006,1.04,-0.1146666666666666,0.0999424,0,-1.57,0,Set_Draw
7.624000000000006,1.04,-0.1146666666666666,0.0998976,0,-1.57,0,Set_Draw
7.632000000000006,1.04,-0.1146666666666666,0.09984000000000001,0,-1.57,0,Set_Draw
7.640000000000006,1.04,-0.1146666666666666,0.0997696,0,-1.57,0,Set_Draw
7.648000000000006,1.04,-0.1146666666666666,0.09968640000000001,0,-1.57,0,Set_Draw
7.656000000000006,1.04,-0.1146666666666666,0.09959040000000001,0,-1.57,0,Set_Draw
7.664000000000006,1.04,-0.1146666666666666,0.0994816,0,-1.57,0,Set_Draw
7.672000000000006,1.04,-0.1146666666666666,0.09936,0,-1.57,0,Set_Draw
7.680000000000006,1.04,-0.1146666666666666,0.09922560000000001,0,-1.57,0,Set_Draw
7.688000000000006,1.04,-0.1146666666666666,0.09907840000000001,0,-1.57,0,Set_Draw
7.696000000000006,1.04,-0.1146666666666666,0.09892000000000001,0,-1.57,0,Set_Draw
7.704000000000006,1.04,-0.1146666666666666,0.09876,0,-1.57,0,Set_Draw
7.712000000000006,1.04,-0.1146666666666666,0.09860000000000001,0,-1.57,0,Set_Draw
7.720000000000006,1.04,-0.1146666666666666,0.09844,0,-1.57,0,Set_Draw
7.728000000000006,1.04,-0.1146666666666666,0.09828,0,-1.57,0,Set_Draw
7.736000000000006,1.04,-0.1146666666666666,0.09812,0,-1.57,0,Set_Draw
7.744000000000006,1.04,-0.1146666666666666,0.09796,0,-1.57,0,Set_Draw
7.752000000000006,1.04,-0.1146666666666666,0.09780000000000001,0,-1.57,0,Set_Draw
7.760000000000006,1.04,-0.1146666666666666,0.09764,0,-1.57,0,Set_Draw
7.768000000000006,1.04,-0.1146666666666666,0.09748000000000001,0,-1.57,0,Set_Draw
7.776000000000006,1.04,-0.1146666666666666,0.09732,0,-1.57,0,Set_Draw
7.784000000000006,1.04,-0.1146666666666666,0.09716000000000001,0,-1.57,0,Set_Draw
7.792000000000006,1.04,-0.1146666666666666,0.097,0,-1.57,0,Set_Draw
7.800000000000006,1.04,-0.1146666666666666,0.09684000000000001,0,-1.57,0,Set_Draw
7.808000000000006,1.04,-0.1146666666666666,0.09668,0,-1.57,0,Set_Draw
7.816000000000006,1.04,-0.1146666666666666,0.09652000000000001,0,-1.57,0,Set_Draw
7.824000000000006,1.04,-0.1146666666666666,0.09636,0,-1.57,0,Set_Draw
7.832000000000006,1.04,-0.1146666666666666,0.09620000000000001,0,-1.57,0,Set_Draw
7.840000000000006,1.04,-0.1146666666666666,0.09604,0,-1.57,0,Set_Draw
7.848000000000006,1.04,-0.1146666666666666,0.09588,0,-1.57,0,Set_Draw
7.856000000000006,1.04,-0.1146666666666666,0.09572,0,-1.57,0,Set_Draw
7.864000000000006,1.04,-0.1146666666666666,0.09556,0,-1.57,0,Set_Draw
7.872000000000006,1.04,-0.1146666666666666,0.0954,0,-1.57,0,Set_Draw
7.880000000000006,1.04,-0.1146666666666666,0.09524,0,-1.57,0,Set_Draw
7.888000000000006,1.04,-0.1146666666666666,0.09508000000000001,0,-1.57,0,Set_Draw
7.896000000000006,1.04,-0.1146666666666666,0.09492,0,-1.57,0,Set_Draw
7.904000000000006,1.04,-0.1146666666666666,0.09476000000000001,0,-1.57,0,Set_Draw
7.912000000000006,1.04,-0.1146666666666666,0.0946,0,-1.57,0,Set_Draw
7.920000000000006,1.04,-0.1146666666666666,0.09444000000000001,0,-1.57,0,Set_Draw
7.928000000000006,1.04,-0.1146666666666666,0.09428,0,-1.57,0,Set_Draw
7.936000000000006,1.04,-0.1146666666666666,0.09412000000000001,0,-1.57,0,Set_Draw
7.944000000000006,1.04,-0.1146666666666666,0.09396,0,-1.57,0,Set_Draw
7.952000000000006,1.04,-0.1146666666666666,0.09380000000000001,0,-1.57,0,Set_Draw
7.960000000000006,1.04,-0.1146666666666666,0.09364,0,-1.57,0,Set_Draw
7.968000000000006,1.04,-0.1146666666666666,0.09348000000000001,0,-1.57,0,Set_Draw
7.976000000000006,1.04,-0.1146666666666666,0.09332,0,-1.57,0,Set_Draw
7.984000000000006,1.04,-0.1146666666666666,0.09316,0,-1.57,0,Set_Draw
7.992000000000006,1.04,-0.1146666666666666,0.093,0,-1.57,0,Set_Draw
8.000000000000005,1.04,-0.1146666666666666,0.09284,0,-1.57,0,Set_Draw
8.008000000000004,1.04,-0.1146666666666666,0.09268,0,-1.57,0,Set_Draw
8.016000000000004,1.04,-0.1146666666666666,0.09252,0,-1.57,0,Set_Draw
8.024000000000003,1.04,-0.1146666666666666,0.09236000000000001,0,-1.57,0,Set_Draw
8.032000000000002,1.04,-0.1146666666666666,0.0922,0,-1.57,0,Set_Draw
8.040000000000001,1.04,-0.1146666666666666,0.09204000000000001,0,-1.57,0,Set_Draw
8.048,1.04,-0.1146666666666666,0.09188,0,-1.57,0,Set_Draw
8.056,1.04,-0.1146666666666666,0.09172000000000001,0,-1.57,0,Set_Draw
8.063999999999998,1.04,-0.1146666666666666,0.09156,0,-1.57,0,Set_Draw
8.071999999999997,1.04,-0.1146666666666666,0.09140000000000001,0,-1.57,0,Set_Draw
8.079999999999997,1.04,-0.1146666666666666,0.09124,0,-1.57,0,Set_Draw
8.087999999999996,1.04,-0.1146666666666666,0.09108000000000001,0,-1.57,0,Set_Draw
8.095999999999995,1.04,-0.1146666666666666,0.09092,0,-1.57,0,Set_Draw
8.103999999999994,1.04,-0.1146666666666666,0.09076000000000001,0,-1.57,0,Set_Draw
8.111999999999993,1.04,-0.1146666666666666,0.0906,0,-1.57,0,Set_Draw
8.119999999999992,1.04,-0.1146666666666666,0.09044,0,-1.57,0,Set_Draw
8.127999999999991,1.04,-0.1146666666666666,0.09028,0,-1.57,0,Set_Draw
8.13599999999999,1.04,-0.1146666666666666,0.09012,0,-1.57,0,Set_Draw
8.14399999999999,1.04,-0.1146666666666666,0.08996000000000001,0,-1.57,0,Set_Draw
8.151999999999989,1.04,-0.1146666666666666,0.0898,0,-1.57,0,Set_Draw
8.159999999999988,1.04,-0.1146666666666666,0.08964,0,-1.57,0,Set_Draw
8.167999999999987,1.04,-0.1146666666666666,0.08948,0,-1.57,0,Set_Draw
8.175999999999986,1.04,-0.1146666666666666,0.08932000000000001,0,-1.57,0,Set_Draw
8.183999999999985,1.04,-0.1146666666666666,0.08916,0,-1.57,0,Set_Draw
8.191999999999984,1.04,-0.1146666666666666,0.08900000000000001,0,-1.57,0,Set_Draw
8.199999999999983,1.04,-0.1146666666666666,0.08884,0,-1.57,0,Set_Draw
8.207999999999982,1.04,-0.1146666666666666,0.08868000000000001,0,-1.57,0,Set_Draw
8.215999999999982,1.04,-0.1146666666666666,0.08852,0,-1.57,0,Set_Draw
8.22399999999998,1.04,-0.1146666666666666,0.08836000000000001,0,-1.57,0,Set_Draw
8.23199999999998,1.04,-0.1146666666666666,0.0882,0,-1.57,0,Set_Draw
8.239999999999979,1.04,-0.1146666666666666,0.08804000000000001,0,-1.57,0,Set_Draw
8.247999999999978,1.04,-0.1146666666666666,0.08788,0,-1.57,0,Set_Draw
8.255999999999977,1.04,-0.1146666666666666,0.08772,0,-1.57,0,Set_Draw
8.263999999999976,1.04,-0.1146666666666666,0.08756,0,-1.57,0,Set_Draw
8.271999999999975,1.04,-0.1146666666666666,0.0874,0,-1.57,0,Set_Draw
8.279999999999974,1.04,-0.1146666666666666,0.08724000000000001,0,-1.57,0,Set_Draw
8.287999999999974,1.04,-0.1146666666666666,0.08708,0,-1.57,0,Set_Draw
8.295999999999973,1.04,-0.1146666666666666,0.08692000000000001,0,-1.57,0,Set_Draw
8.303999999999972,1.04,-0.1146666666666666,0.08676,0,-1.57,0,Set_Draw
8.311999999999971,1.04,-0.1146666666666666,0.08660000000000001,0,-1.57,0,Set_Draw
8.31999999999997,1.04,-0.1146666666666666,0.08644,0,-1.57,0,Set_Draw
8.32799999999997,1.04,-0.1146666666666666,0.08628000000000001,0,-1.57,0,Set_Draw
8.335999999999968,1.04,-0.1146666666666666,0.08612,0,-1.57,0,Set_Draw
8.343999999999967,1.04,-0.1146666666666666,0.08596000000000001,0,-1.57,0,Set_Draw
8.351999999999967,1.04,-0.1146666666666666,0.0858,0,-1.57,0,Set_Draw
8.359999999999966,1.04,-0.1146666666666666,0.08564000000000001,0,-1.57,0,Set_Draw
8.367999999999965,1.04,-0.1146666666666666,0.08548,0,-1.57,0,Set_Draw
8.375999999999964,1.04,-0.1146666666666666,0.08532000000000001,0,-1.57,0,Set_Draw
8.383999999999963,1.04,-0.1146666666666666,0.08516,0,-1.57,0,Set_Draw
8.391999999999962,1.04,-0.1146666666666666,0.085,0,-1.57,0,Set_Draw
8.399999999999961,1.04,-0.1146666666666666,0.08484,0,-1.57,0,Set_Draw
8.40799999999996,1.04,-0.1146666666666666,0.08468,0,-1.57,0,Set_Draw
8.41599999999996,1.04,-0.1146666666666666,0.08452000000000001,0,-1.57,0,Set_Draw
8.423999999999959,1.04,-0.1146666666666666,0.08436,0,-1.57,0,Set_Draw
8.431999999999958,1.04,-0.1146666666666666,0.0842,0,-1.57,0,Set_Draw
8.439999999999957,1.04,-0.1146666666666666,0.08404,0,-1.57,0,Set_Draw
8.447999999999956,1.04,-0.1146666666666666,0.08388000000000001,0,-1.57,0,Set_Draw
8.455999999999955,1.04,-0.1146666666666666,0.08372,0,-1.57,0,Set_Draw
8.463999999999954,1.04,-0.1146666666666666,0.08356000000000001,0,-1.57,0,Set_Draw
8.471999999999953,1.04,-0.1146666666666666,0.0834,0,-1.57,0,Set_Draw
8.479999999999952,1.04,-0.1146666666666666,0.08324000000000001,0,-1.57,0,Set_Draw
8.487999999999952,1.04,-0.1146666666666666,0.08308,0,-1.57,0,Set_Draw
8.49599999999995,1.04,-0.1146666666666666,0.08292000000000001,0,-1.57,0,Set_Draw
8.50399999999995,1.04,-0.1146666666666666,0.08276,0,-1.57,0,Set_Draw
8.511999999999949,1.04,-0.1146666666666666,0.0826,0,-1.57,0,Set_Draw
8.519999999999948,1.04,-0.1146666666666666,0.08244,0,-1.57,0,Set_Draw
8.527999999999947,1.04,-0.1146666666666666,0.08228,0,-1.57,0,Set_Draw
8.535999999999946,1.04,-0.1146666666666666,0.08212,0,-1.57,0,Set_Draw
8.543999999999945,1.04,-0.1146666666666666,0.08196,0,-1.57,0,Set_Draw
8.551999999999945,1.04,-0.1146666666666666,0.08180000000000001,0,-1.57,0,Set_Draw
8.559999999999944,1.04,-0.1146666666666666,0.08164,0,-1.57,0,Set_Draw
8.567999999999943,1.04,-0.1146666666666666,0.08148,0,-1.57,0,Set_Draw
8.575999999999942,1.04,-0.1146666666666666,0.08132,0,-1.57,0,Set_Draw
8.583999999999941,1.04,-0.1146666666666666,0.08116000000000001,0,-1.57,0,Set_Draw
8.59199999999994,1.04,-0.1146666666666666,0.081,0,-1.57,0,Set_Draw
8.59999999999994,1.04,-0.1146666666666666,0.08084,0,-1.57,0,Set_Draw
8.607999999999938,1.04,-0.1146666666666666,0.08068,0,-1.57,0,Set_Draw
8.615999999999937,1.04,-0.1146666666666666,0.08052000000000001,0,-1.57,0,Set_Draw
8.623999999999937,1.04,-0.1146666666666666,0.08036,0,-1.57,0,Set_Draw
8.631999999999936,1.04,-0.1146666666666666,0.08020000000000001,0,-1.57,0,Set_Draw
8.639999999999935,1.04,-0.1146666666666666,0.08004,0,-1.57,0,Set_Draw
8.647999999999934,1.04,-0.1146666666666666,0.07988,0,-1.57,0,Set_Draw
8.655999999999933,1.04,-0.1146666666666666,0.07972,0,-1.57,0,Set_Draw
8.663999999999932,1.04,-0.1146666666666666,0.07956,0,-1.57,0,Set_Draw
8.671999999999931,1.04,-0.1146666666666666,0.0794,0,-1.57,0,Set_Draw
8.67999999999993,1.04,-0.1146666666666666,0.07924,0,-1.57,0,Set_Draw
8.68799999999993,1.04,-0.1146666666666666,0.07908,0,-1.57,0,Set_Draw
8.695999999999929,1.04,-0.1146666666666666,0.07892,0,-1.57,0,Set_Draw
8.703999999999928,1.04,-0.1146666666666666,0.07876,0,-1.57,0,Set_Draw
8.711999999999927,1.04,-0.1146666666666666,0.0786,0,-1.57,0,Set_Draw
8.719999999999926,1.04,-0.1146666666666666,0.07844000000000001,0,-1.57,0,Set_Draw
8.727999999999925,1.04,-0.1146666666666666,0.07828,0,-1.57,0,Set_Draw
8.735999999999924,1.04,-0.1146666666666666,0.07812,0,-1.57,0,Set_Draw
8.743999999999923,1.04,-0.1146666666666666,0.07796,0,-1.57,0,Set_Draw
8.751999999999923,1.04,-0.1146666666666666,0.07780000000000001,0,-1.57,0,Set_Draw
8.759999999999922,1.04,-0.1146666666666666,0.07764000000000001,0,-1.57,0,Set_Draw
8.76799999999992,1.04,-0.1146666666666666,0.07748000000000001,0,-1.57,0,Set_Draw
8.77599999999992,1.04,-0.1146666666666666,0.07732,0,-1.57,0,Set_Draw
8.783999999999919,1.04,-0.1146666666666666,0.07716,0,-1.57,0,Set_Draw
8.791999999999918,1.04,-0.1146666666666666,0.07700000000000001,0,-1.57,0,Set_Draw
8.799999999999917,1.04,-0.1146666666666666,0.07684,0,-1.57,0,Set_Draw
8.807999999999916,1.04,-0.1146666666666666,0.07668,0,-1.57,0,Set_Draw
8.815999999999915,1.04,-0.1146666666666666,0.07652,0,-1.57,0,Set_Draw
8.823999999999915,1.04,-0.1146666666666666,0.07636000000000001,0,-1.57,0,Set_Draw
8.831999999999914,1.04,-0.1146666666666666,0.0762,0,-1.57,0,Set_Draw
8.839999999999913,1.04,-0.1146666666666666,0.07604000000000001,0,-1.57,0,Set_Draw
8.847999999999912,1.04,-0.1146666666666666,0.07588,0,-1.57,0,Set_Draw
8.855999999999911,1.04,-0.1146666666666666,0.07572000000000001,0,-1.57,0,Set_Draw
8.86399999999991,1.04,-0.1146666666666666,0.07556,0,-1.57,0,Set_Draw
8.87199999999991,1.04,-0.1146666666666666,0.07540000000000001,0,-1.57,0,Set_Draw
8.879999999999908,1.04,-0.1146666666666666,0.07524,0,-1.57,0,Set_Draw
8.887999999999908,1.04,-0.1146666666666666,0.07508000000000001,0,-1.57,0,Set_Draw
8.895999999999907,1.04,-0.1146666666666666,0.07492,0,-1.57,0,Set_Draw
8.903999999999906,1.04,-0.1146666666666666,0.07476000000000001,0,-1.57,0,Set_Draw
8.911999999999905,1.04,-0.1146666666666666,0.0746,0,-1.57,0,Set_Draw
8.919999999999904,1.04,-0.1146666666666666,0.07444,0,-1.57,0,Set_Draw
8.927999999999903,1.04,-0.1146666666666666,0.07428000000000001,0,-1.57,0,Set_Draw
8.935999999999902,1.04,-0.1146666666666666,0.07412,0,-1.57,0,Set_Draw
8.943999999999901,1.04,-0.1146666666666666,0.07396,0,-1.57,0,Set_Draw
8.9519999999999,1.04,-0.1146666666666666,0.0738,0,-1.57,0,Set_Draw
8.9599999999999,1.04,-0.1146666666666666,0.07364000000000001,0,-1.57,0,Set_Draw
8.967999999999899,1.04,-0.1146666666666666,0.07348,0,-1.57,0,Set_Draw
8.975999999999898,1.04,-0.1146666666666666,0.07332,0,-1.57,0,Set_Draw
8.983999999999897,1.04,-0.1146666666666666,0.07316,0,-1.57,0,Set_Draw
8.991999999999896,1.04,-0.1146666666666666,0.07300000000000001,0,-1.57,0,Set_Draw
8.999999999999895,1.04,-0.1146666666666666,0.07284000000000002,0,-1.57,0,Set_Draw
9.007999999999894,1.04,-0.1146666666666666,0.07268000000000001,0,-1.57,0,Set_Draw
9.015999999999893,1.04,-0.1146666666666666,0.07252,0,-1.57,0,Set_Draw
9.023999999999893,1.04,-0.1146666666666666,0.07236000000000001,0,-1.57,0,Set_Draw
9.031999999999892,1.04,-0.1146666666666666,0.07220000000000001,0,-1.57,0,Set_Draw
9.03999999999989,1.04,-0.1146666666666666,0.07204,0,-1.57,0,Set_Draw
9.04799999999989,1.04,-0.1146666666666666,0.07188,0,-1.57,0,Set_Draw
9.055999999999889,1.04,-0.1146666666666666,0.07172,0,-1.57,0,Set_Draw
9.063999999999888,1.04,-0.1146666666666666,0.07156000000000001,0,-1.57,0,Set_Draw
9.071999999999887,1.04,-0.1146666666666666,0.0714,0,-1.57,0,Set_Draw
9.079999999999886,1.04,-0.1146666666666666,0.07124,0,-1.57,0,Set_Draw
9.087999999999886,1.04,-0.1146666666666666,0.07108,0,-1.57,0,Set_Draw
9.095999999999885,1.04,-0.1146666666666666,0.07092000000000001,0,-1.57,0,Set_Draw
9.103999999999884,1.04,-0.1146666666666666,0.07076,0,-1.57,0,Set_Draw
9.111999999999883,1.04,-0.1146666666666666,0.07060000000000001,0,-1.57,0,Set_Draw
9.119999999999882,1.04,-0.1146666666666666,0.07044,0,-1.57,0,Set_Draw
9.127999999999881,1.04,-0.1146666666666666,0.07028000000000001,0,-1.57,0,Set_Draw
9.13599999999988,1.04,-0.1146666666666666,0.07012,0,-1.57,0,Set_Draw
9.14399999999988,1.04,-0.1146666666666666,0.06996000000000001,0,-1.57,0,Set_Draw
9.151999999999878,1.04,-0.1146666666666666,0.0698,0,-1.57,0,Set_Draw
9.159999999999878,1.04,-0.1146666666666666,0.06964000000000001,0,-1.57,0,Set_Draw
9.167999999999877,1.04,-0.1146666666666666,0.06948,0,-1.57,0,Set_Draw
9.175999999999876,1.04,-0.1146666666666666,0.06932,0,-1.57,0,Set_Draw
9.183999999999875,1.04,-0.1146666666666666,0.06916,0,-1.57,0,Set_Draw
9.191999999999874,1.04,-0.1146666666666666,0.069,0,-1.57,0,Set_Draw
9.199999999999873,1.04,-0.1146666666666666,0.06884000000000001,0,-1.57,0,Set_Draw
9.207999999999872,1.04,-0.1146666666666666,0.06868,0,-1.57,0,Set_Draw
9.215999999999871,1.04,-0.1146666666666666,0.06852,0,-1.57,0,Set_Draw
9.22399999999987,1.04,-0.1146666666666666,0.06836,0,-1.57,0,Set_Draw
9.23199999999987,1.04,-0.1146666666666666,0.06820000000000001,0,-1.57,0,Set_Draw
9.239999999999869,1.04,-0.1146666666666666,0.06804,0,-1.57,0,Set_Draw
9.247999999999868,1.04,-0.1146666666666666,0.06788,0,-1.57,0,Set_Draw
9.255999999999867,1.04,-0.1146666666666666,0.06772,0,-1.57,0,Set_Draw
9.263999999999866,1.04,-0.1146666666666666,0.06756000000000001,0,-1.57,0,Set_Draw
9.271999999999865,1.04,-0.1146666666666666,0.06740000000000002,0,-1.57,0,Set_Draw
9.279999999999864,1.04,-0.1146666666666666,0.06724000000000001,0,-1.57,0,Set_Draw
9.287999999999863,1.04,-0.1146666666666666,0.06708,0,-1.57,0,Set_Draw
9.295999999999863,1.04,-0.1146666666666666,0.06692000000000001,0,-1.57,0,Set_Draw
9.303999999999862,1.04,-0.1146666666666666,0.06676000000000001,0,-1.57,0,Set_Draw
9.31199999999986,1.04,-0.1146666666666666,0.0666,0,-1.57,0,Set_Draw
9.31999999999986,1.04,-0.1146666666666666,0.06644,0,-1.57,0,Set_Draw
9.327999999999859,1.04,-0.1146666666666666,0.06628,0,-1.57,0,Set_Draw
9.335999999999858,1.04,-0.1146666666666666,0.06612000000000001,0,-1.57,0,Set_Draw
9.343999999999857,1.04,-0.1146666666666666,0.06596,0,-1.57,0,Set_Draw
9.351999999999856,1.04,-0.1146666666666666,0.0658,0,-1.57,0,Set_Draw
9.359999999999856,1.04,-0.1146666666666666,0.06564,0,-1.57,0,Set_Draw
9.367999999999855,1.04,-0.1146666666666666,0.06548000000000001,0,-1.57,0,Set_Draw
9.375999999999854,1.04,-0.1146666666666666,0.06532,0,-1.57,0,Set_Draw
9.383999999999853,1.04,-0.1146666666666666,0.06516,0,-1.57,0,Set_Draw
9.391999999999852,1.04,-0.1146666666666666,0.065,0,-1.57,0,Set_Draw
9.399999999999851,1.04,-0.1146666666666666,0.06484000000000001,0,-1.57,0,Set_Draw
9.40799999999985,1.04,-0.1146666666666666,0.06468,0,-1.57,0,Set_Draw
9.41599999999985,1.04,-0.1146666666666666,0.06452,0,-1.57,0,Set_Draw
9.423999999999848,1.04,-0.1146666666666666,0.06436,0,-1.57,0,Set_Draw
9.431999999999848,1.04,-0.1146666666666666,0.06420000000000001,0,-1.57,0,Set_Draw
9.439999999999847,1.04,-0.1146666666666666,0.06404000000000001,0,-1.57,0,Set_Draw
9.447999999999846,1.04,-0.1146666666666666,0.06388,0,-1.57,0,Set_Draw
9.455999999999845,1.04,-0.1146666666666666,0.06372,0,-1.57,0,Set_Draw
9.463999999999844,1.04,-0.1146666666666666,0.06356,0,-1.57,0,Set_Draw
9.471999999999843,1.04,-0.1146666666666666,0.06340000000000001,0,-1.57,0,Set_Draw
9.479999999999842,1.04,-0.1146666666666666,0.06324,0,-1.57,0,Set_Draw
9.487999999999841,1.04,-0.1146666666666666,0.06308,0,-1.57,0,Set_Draw
9.49599999999984,1.04,-0.1146666666666666,0.06292,0,-1.57,0,Set_Draw
9.50399999999984,1.04,-0.1146666666666666,0.06276000000000001,0,-1.57,0,Set_Draw
9.511999999999839,1.04,-0.1146666666666666,0.06260000000000002,0,-1.57,0,Set_Draw
9.519999999999838,1.04,-0.1146666666666666,0.06244000000000001,0,-1.57,0,Set_Draw
9.527999999999837,1.04,-0.1146666666666666,0.06228000000000001,0,-1.57,0,Set_Draw
9.535999999999836,1.04,-0.1146666666666666,0.06212000000000001,0,-1.57,0,Set_Draw
9.543999999999835,1.04,-0.1146666666666666,0.06196000000000001,0,-1.57,0,Set_Draw
9.551999999999834,1.04,-0.1146666666666666,0.06180000000000001,0,-1.57,0,Set_Draw
9.559999999999834,1.04,-0.1146666666666666,0.06164000000000001,0,-1.57,0,Set_Draw
9.567999999999833,1.04,-0.1146666666666666,0.06148000000000001,0,-1.57,0,Set_Draw
9.575999999999832,1.04,-0.1146666666666666,0.061320000000000006,0,-1.57,0,Set_Draw
9.58399999999983,1.04,-0.1146666666666666,0.061160000000000006,0,-1.57,0,Set_Draw
9.59199999999983,1.04,-0.1146666666666666,0.061000000000000006,0,-1.57,0,Set_Draw
9.59999999999983,1.04,-0.1146666666666666,0.060840000000000005,0,-1.57,0,Set_Draw
9.607999999999828,1.04,-0.1146666666666666,0.060680000000000005,0,-1.57,0,Set_Draw
9.615999999999827,1.04,-0.1146666666666666,0.060520000000000004,0,-1.57,0,Set_Draw
9.623999999999826,1.04,-0.1146666666666666,0.060360000000000004,0,-1.57,0,Set_Draw
9.631999999999826,1.04,-0.1146666666666666,0.060200000000000004,0,-1.57,0,Set_Draw
9.639999999999825,1.04,-0.1146666666666666,0.06004,0,-1.57,0,Set_Draw
9.647999999999824,1.04,-0.1146666666666666,0.05988,0,-1.57,0,Set_Draw
9.655999999999823,1.04,-0.1146666666666666,0.05972,0,-1.57,0,Set_Draw
9.663999999999822,1.04,-0.1146666666666666,0.05956,0,-1.57,0,Set_Draw
9.671999999999821,1.04,-0.1146666666666666,0.0594,0,-1.57,0,Set_Draw
9.67999999999982,1.04,-0.1146666666666666,0.05924,0,-1.57,0,Set_Draw
9.68799999999982,1.04,-0.1146666666666666,0.05908,0,-1.57,0,Set_Draw
9.695999999999819,1.04,-0.1146666666666666,0.05892000000000001,0,-1.57,0,Set_Draw
9.703999999999818,1.04,-0.1146666666666666,0.05876000000000001,0,-1.57,0,Set_Draw
9.711999999999817,1.04,-0.1146666666666666,0.058600000000000006,0,-1.57,0,Set_Draw
9.719999999999816,1.04,-0.1146666666666666,0.058440000000000006,0,-1.57,0,Set_Draw
9.727999999999815,1.04,-0.1146666666666666,0.058280000000000005,0,-1.57,0,Set_Draw
9.735999999999814,1.04,-0.1146666666666666,0.058120000000000005,0,-1.57,0,Set_Draw
9.743999999999813,1.04,-0.1146666666666666,0.057960000000000005,0,-1.57,0,Set_Draw
9.751999999999812,1.04,-0.1146666666666666,0.057800000000000004,0,-1.57,0,Set_Draw
9.759999999999811,1.04,-0.1146666666666666,0.057640000000000004,0,-1.57,0,Set_Draw
9.76799999999981,1.04,-0.1146666666666666,0.05748,0,-1.57,0,Set_Draw
9.77599999999981,1.04,-0.1146666666666666,0.05732,0,-1.57,0,Set_Draw
9.783999999999809,1.04,-0.1146666666666666,0.05716,0,-1.57,0,Set_Draw
9.791999999999808,1.04,-0.1146666666666666,0.057,0,-1.57,0,Set_Draw
9.799999999999807,1.04,-0.1146666666666666,0.05684,0,-1.57,0,Set_Draw
9.807999999999806,1.04,-0.1146666666666666,0.05668,0,-1.57,0,Set_Draw
9.815999999999805,1.04,-0.1146666666666666,0.05652,0,-1.57,0,Set_Draw
9.823999999999804,1.04,-0.1146666666666666,0.05636,0,-1.57,0,Set_Draw
9.831999999999804,1.04,-0.1146666666666666,0.0562,0,-1.57,0,Set_Draw
9.839999999999803,1.04,-0.1146666666666666,0.05604,0,-1.57,0,Set_Draw
9.847999999999802,1.04,-0.1146666666666666,0.05588,0,-1.57,0,Set_Draw
9.855999999999801,1.04,-0.1146666666666666,0.05572,0,-1.57,0,Set_Draw
9.8639999999998,1.04,-0.1146666666666666,0.05556,0,-1.57,0,Set_Draw
9.8719999999998,1.04,-0.1146666666666666,0.0554,0,-1.57,0,Set_Draw
9.879999999999798,1.04,-0.1146666666666666,0.05524,0,-1.57,0,Set_Draw
9.887999999999797,1.04,-0.1146666666666666,0.05508,0,-1.57,0,Set_Draw
9.895999999999797,1.04,-0.1146666666666666,0.054920000000000004,0,-1.57,0,Set_Draw
9.903999999999796,1.04,-0.1146666666666666,0.05476000000000001,0,-1.57,0,Set_Draw
9.911999999999795,1.04,-0.1146666666666666,0.05460000000000001,0,-1.57,0,Set_Draw
9.919999999999794,1.04,-0.1146666666666666,0.05444000000000001,0,-1.57,0,Set_Draw
9.927999999999793,1.04,-0.1146666666666666,0.05428000000000001,0,-1.57,0,Set_Draw
9.935999999999792,1.04,-0.1146666666666666,0.05412000000000001,0,-1.57,0,Set_Draw
9.943999999999791,1.04,-0.1146666666666666,0.05396000000000001,0,-1.57,0,Set_Draw
9.95199999999979,1.04,-0.1146666666666666,0.05380000000000001,0,-1.57,0,Set_Draw
9.95999999999979,1.04,-0.1146666666666666,0.05364000000000001,0,-1.57,0,Set_Draw
9.967999999999789,1.04,-0.1146666666666666,0.05348000000000001,0,-1.57,0,Set_Draw
9.975999999999788,1.04,-0.1146666666666666,0.053320000000000006,0,-1.57,0,Set_Draw
9.983999999999787,1.04,-0.1146666666666666,0.053160000000000006,0,-1.57,0,Set_Draw
9.991999999999786,1.04,-0.1146666666666666,0.053000000000000005,0,-1.57,0,Set_Draw
9.999999999999785,1.04,-0.1146666666666666,0.052840000000000005,0,-1.57,0,Set_Draw
10.007999999999784,1.04,-0.1146666666666666,0.052680000000000005,0,-1.57,0,Set_Draw
10.015999999999783,1.04,-0.1146666666666666,0.052520000000000004,0,-1.57,0,Set_Draw
10.023999999999782,1.04,-0.1146666666666666,0.052360000000000004,0,-1.57,0,Set_Draw
10.031999999999782,1.04,-0.1146666666666666,0.0522,0,-1.57,0,Set_Draw
10.03999999999978,1.04,-0.1146666666666666,0.05204,0,-1.57,0,Set_Draw
10.04799999999978,1.04,-0.1146666666666666,0.05188000000000001,0,-1.57,0,Set_Draw
10.055999999999779,1.04,-0.1146666666666666,0.05172000000000001,0,-1.57,0,Set_Draw
10.063999999999778,1.04,-0.1146666666666666,0.05156000000000001,0,-1.57,0,Set_Draw
10.071999999999777,1.04,-0.1146666666666666,0.05140000000000001,0,-1.57,0,Set_Draw
10.079999999999776,1.04,-0.1146666666666666,0.05124000000000001,0,-1.57,0,Set_Draw
10.087999999999775,1.04,-0.1146666666666666,0.05108000000000001,0,-1.57,0,Set_Draw
10.095999999999774,1.04,-0.1146666666666666,0.05092000000000001,0,-1.57,0,Set_Draw
10.103999999999774,1.04,-0.1146666666666666,0.050760000000000007,0,-1.57,0,Set_Draw
10.111999999999773,1.04,-0.1146666666666666,0.050600000000000006,0,-1.57,0,Set_Draw
10.119999999999772,1.04,-0.1146666666666666,0.050440000000000006,0,-1.57,0,Set_Draw
10.127999999999771,1.04,-0.1146666666666666,0.050280000000000005,0,-1.57,0,Set_Draw
10.13599999999977,1.04,-0.1146666666666666,0.050120000000000005,0,-1.57,0,Set_Draw
10.14399999999977,1.04,-0.1146666666666666,0.049960000000000004,0,-1.57,0,Set_Draw
10.151999999999768,1.04,-0.1146666666666666,0.049800000000000004,0,-1.57,0,Set_Draw
